leica-film-sim/luts/lut-ektar.cube
#Created from IWLTBAP Aspen 3DL LUT (F-8700-LOG variant)
#Converted from .3dl to .cube format
TITLE "IWLTBAP Aspen"
LUT_3D_SIZE 17
0.035897 0.041270 0.046642
0.036142 0.045910 0.061783
0.036142 0.052015 0.079853
0.035897 0.059096 0.100855
0.035165 0.066911 0.125031
0.035897 0.076435 0.154335
0.037363 0.088156 0.186325
0.039560 0.101099 0.221734
0.042735 0.116484 0.260562
0.046154 0.133822 0.304518
0.050061 0.152869 0.353114
0.054457 0.174359 0.407570
0.059096 0.197802 0.463492
0.064225 0.222711 0.521856
0.069353 0.249573 0.578755
0.074725 0.276679 0.628327
0.079853 0.302808 0.675946
0.039316 0.059585 0.053480
0.039072 0.056899 0.065446
0.039072 0.061783 0.084737
0.038584 0.069109 0.105983
0.037851 0.077167 0.130647
0.038828 0.087668 0.159951
0.040537 0.100366 0.193895
0.042735 0.114530 0.231013
0.046154 0.131136 0.271306
0.049817 0.148718 0.317949
0.053724 0.168742 0.368987
0.058120 0.190965 0.424420
0.063004 0.215385 0.481563
0.068132 0.241026 0.540904
0.073260 0.268132 0.593651
0.078388 0.294750 0.644689
0.083516 0.321612 0.688889
0.042979 0.082295 0.057631
0.042491 0.085470 0.078877
0.042247 0.076435 0.089377
0.041758 0.080586 0.111600
0.041026 0.088889 0.137729
0.042002 0.100122 0.167277
0.043956 0.113309 0.202442
0.046398 0.128449 0.240293
0.049817 0.145788 0.282540
0.053480 0.164347 0.330647
0.057631 0.185836 0.384860
0.062271 0.208303 0.441514
0.066911 0.233211 0.499145
0.072039 0.259585 0.557021
0.077167 0.285958 0.608547
0.082540 0.313309 0.657631
0.087179 0.337729 0.701099
0.045910 0.108181 0.059341
0.045177 0.112332 0.081074
0.044933 0.114530 0.110623
0.044933 0.100122 0.117949
0.044444 0.103541 0.145055
0.045421 0.113553 0.176313
0.047375 0.127717 0.211966
0.050061 0.143346 0.251038
0.053724 0.161172 0.295482
0.057387 0.180708 0.344567
0.061783 0.202686 0.400488
0.066422 0.226374 0.457875
0.071306 0.251526 0.516484
0.076435 0.278632 0.572650
0.081319 0.305006 0.623199
0.086447 0.330891 0.671551
0.091331 0.355800 0.714286
0.048596 0.131136 0.062027
0.046642 0.138462 0.077411
0.046642 0.153114 0.115751
0.048107 0.147253 0.145543
0.048352 0.128694 0.153602
0.049573 0.133578 0.186325
0.051282 0.144078 0.222222
0.054212 0.159463 0.263004
0.057631 0.177534 0.309646
0.061538 0.197802 0.360684
0.066178 0.220513 0.417582
0.070818 0.245665 0.476190
0.075702 0.271062 0.535287
0.081074 0.298657 0.589255
0.085714 0.323810 0.638584
0.090842 0.349939 0.684005
0.095726 0.373871 0.725031
0.050794 0.159219 0.063736
0.048107 0.168987 0.076679
0.046886 0.187302 0.106716
0.052259 0.203663 0.161661
0.054212 0.186325 0.188278
0.054457 0.164103 0.197070
0.055922 0.168010 0.234188
0.058364 0.178022 0.276190
0.062027 0.195604 0.325031
0.066178 0.216361 0.379243
0.070818 0.240293 0.436142
0.075458 0.265446 0.494750
0.080586 0.291819 0.553602
0.085470 0.318193 0.605617
0.090598 0.344811 0.654457
0.095482 0.369231 0.699145
0.100122 0.392674 0.737729
0.052503 0.192674 0.065201
0.049328 0.201709 0.075946
0.046886 0.221978 0.095726
0.054701 0.248352 0.156288
0.061050 0.258364 0.220513
0.061538 0.225641 0.237118
0.061294 0.202198 0.247863
0.063492 0.204884 0.292552
0.066911 0.216850 0.342613
0.071062 0.237118 0.398779
0.075702 0.261050 0.456654
0.080586 0.286691 0.515995
0.085470 0.313065 0.571429
0.090598 0.339438 0.622711
0.095482 0.365324 0.670818
0.100366 0.389255 0.711844
0.105006 0.411477 0.749451
0.054701 0.227839 0.069353
0.051282 0.239072 0.080098
0.048840 0.257143 0.093040
0.055433 0.288400 0.138706
0.067155 0.321368 0.230769
0.071795 0.315751 0.292796
0.070330 0.266178 0.293284
0.069841 0.241514 0.310867
0.072772 0.246398 0.363858
0.076435 0.261050 0.420024
0.081074 0.284493 0.479121
0.085714 0.309402 0.536264
0.090842 0.335775 0.589988
0.095726 0.361416 0.639805
0.100611 0.385592 0.684982
0.105250 0.408791 0.726252
0.109646 0.429548 0.760684
0.058608 0.268132 0.074969
0.055678 0.279121 0.085958
0.052991 0.297436 0.098657
0.056654 0.326984 0.124786
0.070330 0.372405 0.221245
0.082051 0.404396 0.333578
0.083272 0.367766 0.371673
0.080098 0.305983 0.358242
0.079853 0.288156 0.387057
0.082784 0.294505 0.443223
0.086935 0.310623 0.502076
0.091575 0.334066 0.557509
0.096459 0.359219 0.609280
0.101099 0.383394 0.657143
0.105739 0.406105 0.700611
0.110379 0.428327 0.737973
0.114774 0.448840 0.772161
0.063736 0.313065 0.081074
0.061050 0.321368 0.092063
0.058120 0.340171 0.105250
0.059585 0.367521 0.122100
0.072283 0.414896 0.204396
0.089377 0.471795 0.354335
0.097436 0.480830 0.452991
0.094505 0.410012 0.443956
0.091087 0.354335 0.435409
0.090842 0.340415 0.470818
0.094017 0.347985 0.526496
0.097924 0.363858 0.579731
0.102564 0.384615 0.629060
0.106960 0.407082 0.674481
0.111355 0.428083 0.715018
0.115751 0.448840 0.751160
0.119658 0.467399 0.783150
0.069597 0.358486 0.087179
0.066911 0.366056 0.098413
0.063248 0.383639 0.112088
0.064469 0.409524 0.127961
0.075214 0.454701 0.195849
0.094750 0.519902 0.356044
0.109158 0.564591 0.510134
0.110867 0.527228 0.542613
0.105739 0.449328 0.514774
0.102564 0.408059 0.519170
0.102564 0.398046 0.553358
0.105495 0.405372 0.601954
0.109158 0.418071 0.649328
0.113065 0.434676 0.691087
0.117216 0.451770 0.729182
0.121123 0.469597 0.762882
0.125275 0.487179 0.793162
0.075702 0.405128 0.093284
0.073260 0.407814 0.104762
0.069109 0.425885 0.119170
0.070085 0.452991 0.135287
0.079365 0.492308 0.195116
0.099634 0.557998 0.355800
0.117949 0.620513 0.543101
0.124542 0.620757 0.618559
0.121856 0.556532 0.605861
0.116728 0.492552 0.582906
0.114286 0.463492 0.596581
0.114042 0.454212 0.627839
0.116484 0.458852 0.669841
0.119902 0.469353 0.708913
0.123321 0.482784 0.745055
0.126984 0.497192 0.776557
0.130647 0.512576 0.803419
0.082295 0.452991 0.099145
0.080098 0.450305 0.110867
0.074969 0.468376 0.126496
0.075702 0.494017 0.143834
0.085470 0.529182 0.205128
0.104762 0.590232 0.359951
0.125031 0.659829 0.558486
0.135043 0.682784 0.667888
0.136264 0.643956 0.680098
0.131380 0.580952 0.657631
0.127473 0.534310 0.648352
0.125275 0.512821 0.665446
0.125275 0.504762 0.693040
0.127228 0.507204 0.726740
0.130159 0.517216 0.758730
0.133333 0.527473 0.789011
0.136508 0.539927 0.814896
0.089377 0.498657 0.105250
0.087424 0.489377 0.117216
0.081807 0.506716 0.133578
0.082784 0.532601 0.158486
0.093284 0.565812 0.225397
0.110623 0.620757 0.368742
0.130647 0.693529 0.563126
0.143590 0.727961 0.702808
0.147009 0.704518 0.728694
0.145299 0.657875 0.724786
0.140659 0.605861 0.704762
0.137729 0.574847 0.706716
0.136020 0.557753 0.723565
0.135531 0.550183 0.745055
0.137729 0.553114 0.774847
0.140171 0.559463 0.801709
0.142857 0.567521 0.825885
0.096703 0.543101 0.111355
0.094994 0.529670 0.123565
0.089133 0.544078 0.140904
0.091819 0.568742 0.180708
0.101587 0.603175 0.250305
0.115751 0.668864 0.367521
0.136020 0.735775 0.559951
0.151404 0.772650 0.724786
0.156288 0.752625 0.766056
0.156777 0.719170 0.773382
0.153358 0.671306 0.760195
0.149939 0.632234 0.748230
0.147497 0.610989 0.756532
0.146032 0.597558 0.771184
0.145543 0.589744 0.789499
0.147253 0.591941 0.815385
0.149451 0.596825 0.837118
0.104762 0.587057 0.117460
0.103297 0.575580 0.129670
0.097680 0.583883 0.149206
0.095971 0.622711 0.182173
0.104274 0.674237 0.238584
0.119414 0.727961 0.357021
0.141636 0.779731 0.557021
0.158242 0.812210 0.731136
0.165079 0.798291 0.799512
0.166056 0.766300 0.807570
0.164835 0.727228 0.805372
0.161172 0.687668 0.792674
0.158730 0.658120 0.787302
0.156532 0.642735 0.798291
0.155311 0.631502 0.811966
0.154823 0.623932 0.827106
0.156532 0.626129 0.849817
0.113065 0.682540 0.123321
0.112088 0.672039 0.135531
0.106227 0.672772 0.154579
0.098168 0.703053 0.175336
0.105495 0.743834 0.228083
0.123810 0.784615 0.352137
0.147009 0.820269 0.555311
0.164347 0.845421 0.731624
0.173871 0.842979 0.827350
0.175092 0.808547 0.837607
0.174847 0.776313 0.840293
0.172405 0.740171 0.833455
0.169231 0.706471 0.823443
0.167033 0.683272 0.822711
0.165079 0.669597 0.833700
0.164103 0.661538 0.845910
0.163614 0.654701 0.860562
0.047863 0.046398 0.048352
0.047131 0.050549 0.062515
0.047131 0.056654 0.081563
0.046642 0.063980 0.102320
0.045910 0.071551 0.125519
0.044689 0.079609 0.152137
0.045665 0.090842 0.183150
0.047863 0.104274 0.218803
0.050794 0.119414 0.258120
0.054457 0.136996 0.301587
0.058608 0.156044 0.350183
0.063004 0.177534 0.404151
0.067643 0.200733 0.461050
0.072772 0.226129 0.519902
0.077900 0.252015 0.574847
0.083272 0.279365 0.626374
0.088889 0.307692 0.674725
0.050794 0.062515 0.053968
0.050061 0.060073 0.067399
0.049817 0.066178 0.087179
0.048840 0.073748 0.109646
0.047375 0.081563 0.134310
0.046398 0.091087 0.163370
0.047863 0.103785 0.197558
0.050305 0.118437 0.235653
0.053724 0.134799 0.276923
0.057387 0.153114 0.324054
0.061538 0.173138 0.376068
0.065934 0.195360 0.431502
0.070818 0.220513 0.489866
0.075946 0.246642 0.548474
0.081319 0.273993 0.602930
0.086691 0.300611 0.651526
0.091575 0.326252 0.695482
0.053968 0.084982 0.060073
0.053968 0.085958 0.076190
0.052991 0.080830 0.091819
0.051770 0.084982 0.114774
0.050061 0.093529 0.141148
0.049573 0.104518 0.171917
0.051282 0.118437 0.207814
0.053968 0.133578 0.246642
0.057387 0.150916 0.290598
0.061294 0.169719 0.339194
0.065446 0.191697 0.395116
0.070085 0.214408 0.450549
0.074725 0.239316 0.508669
0.079853 0.265201 0.564835
0.084982 0.291575 0.616117
0.090354 0.318681 0.664713
0.095238 0.343346 0.706960
0.056899 0.112332 0.063004
0.056899 0.113065 0.078388
0.055678 0.117949 0.108425
0.054945 0.104762 0.121612
0.053480 0.108425 0.148962
0.052991 0.118681 0.181685
0.054945 0.133089 0.218315
0.057631 0.149206 0.257875
0.061294 0.167521 0.304029
0.065446 0.187790 0.354823
0.069597 0.209768 0.410745
0.074237 0.233700 0.468132
0.079121 0.258852 0.526496
0.084249 0.285226 0.581197
0.089377 0.311111 0.630769
0.094261 0.337241 0.676435
0.099145 0.361416 0.719170
0.059585 0.139927 0.064957
0.058852 0.138950 0.077411
0.057143 0.151893 0.106471
0.056410 0.154823 0.148718
0.056654 0.135043 0.158486
0.056899 0.139194 0.190965
0.058852 0.150183 0.229548
0.061783 0.165812 0.270818
0.065446 0.184860 0.318681
0.069597 0.205372 0.372405
0.073993 0.228327 0.428327
0.078632 0.252991 0.486691
0.083516 0.278632 0.544322
0.088645 0.305250 0.597558
0.093773 0.331136 0.647131
0.098657 0.355800 0.690842
0.103541 0.379487 0.731380
0.062027 0.166056 0.067888
0.060562 0.168987 0.077167
0.057387 0.183150 0.098657
0.058852 0.204884 0.155800
0.061783 0.196825 0.194383
0.061783 0.171184 0.203663
0.063248 0.174603 0.241270
0.066178 0.185104 0.285470
0.069841 0.203175 0.335043
0.073993 0.224664 0.390720
0.078632 0.248596 0.447619
0.083516 0.273504 0.505739
0.088400 0.299389 0.562882
0.093284 0.325519 0.613919
0.098413 0.351893 0.662271
0.103297 0.376557 0.705250
0.107937 0.398046 0.742857
0.063004 0.200488 0.067155
0.061294 0.203175 0.075702
0.057143 0.217094 0.091819
0.059829 0.245421 0.143834
0.067888 0.265201 0.218315
0.069353 0.239316 0.246154
0.068864 0.210256 0.255922
0.071062 0.211722 0.301343
0.074725 0.224664 0.353114
0.078877 0.245177 0.409524
0.083516 0.269597 0.468132
0.088400 0.295726 0.526007
0.093529 0.321612 0.580464
0.098413 0.347741 0.631502
0.103297 0.372650 0.676923
0.108181 0.395849 0.718193
0.112576 0.417582 0.754090
0.064713 0.240781 0.069841
0.063004 0.241270 0.078388
0.058608 0.254945 0.092063
0.060073 0.284005 0.126252
0.072283 0.320635 0.217582
0.079365 0.330647 0.297924
0.078632 0.280342 0.305006
0.077656 0.250305 0.320391
0.080342 0.254945 0.375092
0.084249 0.269841 0.431258
0.088889 0.293529 0.490110
0.093773 0.319170 0.547497
0.098657 0.344567 0.599267
0.103541 0.369719 0.647863
0.108425 0.393162 0.692308
0.113065 0.415873 0.732357
0.117460 0.436142 0.765812
0.069109 0.283516 0.075458
0.067399 0.282295 0.084005
0.063248 0.296947 0.097436
0.061538 0.322833 0.117460
0.074237 0.366056 0.201465
0.087912 0.409768 0.325763
0.091819 0.389255 0.385348
0.088400 0.321612 0.371673
0.087668 0.298413 0.398291
0.090842 0.304762 0.455189
0.094994 0.320635 0.513553
0.099634 0.343834 0.568010
0.104274 0.368742 0.619048
0.108913 0.391941 0.665201
0.113553 0.414652 0.707448
0.118193 0.435897 0.744322
0.122344 0.455678 0.777289
0.074481 0.330403 0.081319
0.072772 0.328694 0.089866
0.068620 0.341880 0.103541
0.065446 0.365324 0.119902
0.075702 0.406838 0.184615
0.093773 0.467888 0.331624
0.105250 0.496215 0.457387
0.103785 0.433455 0.462759
0.099389 0.369231 0.448352
0.098901 0.352381 0.482784
0.101832 0.358974 0.537485
0.105983 0.374115 0.589255
0.110379 0.394628 0.637851
0.114774 0.415873 0.682295
0.119170 0.436386 0.721856
0.123321 0.456166 0.757021
0.127473 0.473993 0.788034
0.080342 0.378999 0.087179
0.078632 0.375336 0.095726
0.074725 0.385348 0.109890
0.070574 0.409035 0.126740
0.078388 0.447375 0.176313
0.098168 0.510623 0.326007
0.115018 0.568254 0.499878
0.119658 0.548718 0.557509
0.114774 0.470330 0.531868
0.110867 0.422711 0.530647
0.110623 0.410012 0.563614
0.113309 0.416361 0.612454
0.116972 0.428816 0.657631
0.120879 0.443956 0.698901
0.125031 0.461050 0.736264
0.128938 0.477411 0.768498
0.132845 0.494017 0.798535
0.086691 0.429304 0.092796
0.084982 0.422466 0.101832
0.081319 0.428816 0.116239
0.076190 0.452747 0.133822
0.083516 0.487179 0.180952
0.102564 0.547253 0.324786
0.122589 0.617094 0.521368
0.131868 0.632234 0.622955
0.130891 0.577534 0.621978
0.125275 0.508425 0.595849
0.122589 0.476679 0.606593
0.122100 0.465690 0.637851
0.124298 0.468620 0.679365
0.127473 0.478632 0.716239
0.130891 0.491087 0.751160
0.134799 0.505739 0.780952
0.138217 0.519170 0.808547
0.093529 0.478144 0.098657
0.091819 0.471062 0.107937
0.088645 0.471062 0.122589
0.082784 0.494750 0.142369
0.090598 0.526252 0.196581
0.107448 0.579731 0.327961
0.128449 0.650794 0.528449
0.141392 0.688156 0.666667
0.143834 0.657631 0.688156
0.140171 0.596337 0.671062
0.135775 0.547009 0.658608
0.133333 0.524542 0.673748
0.133089 0.515507 0.700366
0.135043 0.518193 0.734066
0.137729 0.525275 0.765079
0.140904 0.535531 0.793895
0.144078 0.546520 0.819292
0.101099 0.526984 0.104518
0.099145 0.516972 0.114042
0.096215 0.509402 0.128938
0.090354 0.533333 0.155067
0.098657 0.564591 0.218559
0.113553 0.611233 0.338950
0.133822 0.684737 0.530891
0.149451 0.732357 0.694750
0.153846 0.714530 0.732357
0.153358 0.671551 0.734066
0.148962 0.619292 0.715751
0.145788 0.585104 0.714042
0.143834 0.568010 0.729670
0.143590 0.559951 0.751893
0.145055 0.560440 0.779976
0.147497 0.566789 0.806838
0.150183 0.573871 0.830525
0.108913 0.574115 0.110134
0.107204 0.562637 0.119902
0.104518 0.547253 0.135287
0.101099 0.570208 0.177289
0.106960 0.601465 0.243468
0.118926 0.658364 0.342369
0.139194 0.729426 0.526252
0.156288 0.774115 0.707692
0.163126 0.761416 0.768987
0.164103 0.729915 0.777778
0.161416 0.683028 0.768742
0.157753 0.642491 0.756044
0.155311 0.620024 0.761905
0.153602 0.606593 0.777045
0.153114 0.598046 0.795116
0.154579 0.599023 0.819048
0.156777 0.602930 0.841514
0.117460 0.626129 0.115995
0.115751 0.616850 0.126252
0.113309 0.603419 0.141392
0.108913 0.624908 0.178266
0.110623 0.671306 0.235653
0.122589 0.722589 0.331624
0.144078 0.774359 0.521612
0.162393 0.810989 0.706960
0.171673 0.808059 0.800977
0.173138 0.775336 0.810989
0.172405 0.737485 0.811477
0.169231 0.698901 0.800488
0.166300 0.666911 0.793162
0.164103 0.650305 0.802930
0.162882 0.639316 0.816117
0.162149 0.631502 0.831990
0.163614 0.632234 0.853480
0.127228 0.715263 0.122589
0.124786 0.710134 0.132357
0.122833 0.697924 0.147497
0.115018 0.706716 0.170208
0.111844 0.742613 0.222222
0.127228 0.782418 0.331136
0.148962 0.817582 0.516484
0.168254 0.844689 0.703297
0.179731 0.851770 0.822955
0.182173 0.818315 0.840537
0.182173 0.786569 0.844200
0.179976 0.749206 0.839316
0.176801 0.715263 0.829304
0.174359 0.689866 0.826374
0.172405 0.676435 0.837363
0.171184 0.667155 0.849573
0.170696 0.660562 0.863980
0.066667 0.052015 0.051526
0.063492 0.054701 0.068132
0.061050 0.060562 0.083761
0.058608 0.067888 0.102564
0.057387 0.076923 0.128205
0.055678 0.084982 0.153846
0.054457 0.094505 0.182418
0.056166 0.107204 0.215873
0.059341 0.123321 0.255433
0.062759 0.140171 0.297924
0.066911 0.159219 0.346276
0.071062 0.179976 0.398779
0.075946 0.203175 0.454945
0.081074 0.228327 0.512576
0.086203 0.254457 0.568987
0.091575 0.281074 0.619780
0.097192 0.308913 0.669597
0.070330 0.068620 0.055922
0.065934 0.069109 0.071795
0.063980 0.072772 0.088645
0.061538 0.078877 0.110379
0.059585 0.086935 0.135287
0.057143 0.095482 0.162637
0.056654 0.106960 0.195604
0.058852 0.121612 0.233455
0.062027 0.137729 0.273748
0.065934 0.156532 0.320635
0.069841 0.176313 0.371184
0.074481 0.198046 0.426129
0.079365 0.222711 0.483761
0.084493 0.248596 0.541880
0.089866 0.275458 0.596581
0.095238 0.302564 0.644689
0.100366 0.328694 0.692063
0.071551 0.089866 0.058120
0.069353 0.088889 0.075946
0.067155 0.086447 0.094505
0.064469 0.091087 0.118193
0.061783 0.099145 0.145543
0.058852 0.109158 0.177534
0.059096 0.122344 0.213431
0.062027 0.138217 0.254212
0.065446 0.156288 0.298413
0.069353 0.175092 0.347741
0.073504 0.196581 0.403419
0.078144 0.220024 0.459829
0.083028 0.244933 0.519414
0.088400 0.271795 0.574847
0.093529 0.297680 0.624420
0.098657 0.323810 0.671306
0.103785 0.349451 0.713797
0.071795 0.118926 0.064469
0.070574 0.118926 0.081074
0.070085 0.117460 0.104029
0.068132 0.111600 0.126007
0.064957 0.114530 0.153846
0.061783 0.124542 0.187302
0.063004 0.139438 0.225153
0.065934 0.155556 0.266422
0.069597 0.174359 0.315263
0.073504 0.194383 0.367033
0.077900 0.216606 0.423199
0.082540 0.240293 0.479853
0.087424 0.265201 0.537485
0.092552 0.291575 0.590476
0.097436 0.317460 0.640293
0.102564 0.342857 0.684982
0.107692 0.367277 0.726007
0.072283 0.149206 0.064713
0.072283 0.150672 0.082051
0.071795 0.149695 0.102076
0.069597 0.160684 0.146276
0.068132 0.143101 0.164591
0.065446 0.144811 0.197314
0.066911 0.157021 0.237118
0.070085 0.173626 0.280586
0.073993 0.192674 0.329915
0.077900 0.213919 0.385592
0.082540 0.236874 0.440781
0.087179 0.261050 0.499145
0.092063 0.286935 0.555067
0.096947 0.311844 0.606593
0.102076 0.338217 0.654457
0.106960 0.362393 0.697924
0.111600 0.385104 0.736264
0.073260 0.179487 0.064225
0.073748 0.179243 0.081807
0.072527 0.180952 0.097192
0.069841 0.202198 0.142369
0.070085 0.206593 0.198779
0.070085 0.178999 0.210501
0.071551 0.181441 0.249084
0.074481 0.193162 0.295971
0.078388 0.211966 0.347009
0.082540 0.234188 0.403419
0.087179 0.257875 0.459829
0.092063 0.283028 0.518193
0.096947 0.308425 0.573138
0.101832 0.334310 0.623443
0.106960 0.359219 0.671062
0.111844 0.383150 0.712576
0.116239 0.404396 0.748474
0.074481 0.210745 0.066422
0.073993 0.213675 0.079365
0.072283 0.216361 0.092552
0.069109 0.238828 0.128694
0.074725 0.268620 0.210989
0.077900 0.253724 0.254945
0.077411 0.218803 0.264957
0.079609 0.221001 0.312088
0.083272 0.233700 0.365568
0.087424 0.255678 0.422222
0.092308 0.280342 0.481807
0.097192 0.305739 0.538950
0.102076 0.330891 0.590476
0.106960 0.356288 0.640293
0.111844 0.380464 0.685470
0.116484 0.403175 0.725519
0.120879 0.424176 0.759951
0.076679 0.251038 0.070085
0.075214 0.254945 0.078877
0.073260 0.256899 0.090110
0.069353 0.278144 0.116484
0.077167 0.316972 0.199756
0.087424 0.342369 0.297924
0.087668 0.297680 0.318681
0.086447 0.261050 0.331380
0.089133 0.264957 0.387057
0.093040 0.280586 0.444933
0.097680 0.304029 0.502808
0.102564 0.329670 0.559219
0.107448 0.354579 0.610012
0.112332 0.379243 0.657143
0.116972 0.402198 0.700366
0.121368 0.423687 0.738462
0.125763 0.443956 0.772161
0.081319 0.296947 0.075702
0.079853 0.299878 0.084249
0.077656 0.299878 0.094994
0.072527 0.320391 0.114286
0.078632 0.358486 0.181929
0.094017 0.409768 0.310623
0.101099 0.411233 0.397558
0.097924 0.340415 0.387790
0.096703 0.310867 0.410745
0.099634 0.315995 0.468620
0.103785 0.331624 0.526740
0.108425 0.355067 0.578755
0.113065 0.378755 0.629060
0.117705 0.401709 0.674237
0.122344 0.423687 0.715751
0.126496 0.443956 0.750672
0.130647 0.462759 0.781929
0.086691 0.344811 0.081319
0.085226 0.348230 0.089866
0.083272 0.346520 0.100611
0.077167 0.365568 0.117705
0.079853 0.399267 0.166300
0.097680 0.459585 0.302076
0.112576 0.505739 0.452503
0.113797 0.459096 0.482540
0.108913 0.386325 0.463248
0.107937 0.366056 0.496215
0.110867 0.371429 0.549939
0.114774 0.386325 0.600488
0.118926 0.404640 0.648107
0.123321 0.424908 0.690598
0.127717 0.445421 0.728938
0.131868 0.464713 0.763370
0.135775 0.481074 0.793407
0.093040 0.396093 0.086935
0.091575 0.398535 0.095482
0.089377 0.393895 0.106471
0.083516 0.410256 0.124054
0.083516 0.441758 0.164591
0.101343 0.499634 0.293284
0.120879 0.566789 0.480830
0.128694 0.568498 0.568742
0.124786 0.493284 0.550672
0.120391 0.438828 0.544078
0.119658 0.424176 0.576068
0.122344 0.428816 0.623932
0.125763 0.439805 0.667399
0.129426 0.453724 0.707204
0.133578 0.470818 0.743101
0.137241 0.486447 0.775092
0.140904 0.501343 0.802930
0.099878 0.448107 0.092308
0.098168 0.450305 0.101343
0.095971 0.442491 0.112332
0.090598 0.453968 0.130647
0.089621 0.484249 0.174115
0.105495 0.536264 0.291331
0.126740 0.609280 0.488889
0.139438 0.641514 0.623687
0.140415 0.597558 0.636386
0.135043 0.527717 0.611722
0.131624 0.490354 0.617827
0.131136 0.478632 0.648596
0.133333 0.480586 0.688156
0.136264 0.489377 0.724542
0.139438 0.500855 0.757509
0.143101 0.514286 0.786325
0.146520 0.527228 0.812698
0.107692 0.498413 0.097924
0.105495 0.500855 0.106960
0.103297 0.491819 0.118437
0.098657 0.495971 0.137485
0.097924 0.525031 0.191697
0.111111 0.570452 0.299878
0.131868 0.640293 0.491331
0.147985 0.691087 0.658852
0.152137 0.670818 0.694261
0.149695 0.614896 0.685226
0.145055 0.562637 0.670085
0.142369 0.537485 0.683516
0.141880 0.526984 0.708669
0.143590 0.527961 0.742125
0.146276 0.534554 0.771917
0.149206 0.544567 0.799023
0.152137 0.554335 0.823932
0.117949 0.549206 0.103053
0.113553 0.549451 0.112576
0.111355 0.538706 0.124298
0.108181 0.535287 0.147253
0.107204 0.564591 0.213187
0.117460 0.603419 0.312821
0.136996 0.673016 0.492796
0.155067 0.732845 0.676923
0.161661 0.724054 0.735531
0.162149 0.686203 0.742857
0.158242 0.633944 0.726984
0.154823 0.596825 0.722344
0.152381 0.578266 0.736508
0.152137 0.570208 0.758974
0.153602 0.570452 0.786325
0.155800 0.574603 0.811966
0.158242 0.581197 0.834921
0.156777 0.599267 0.106960
0.129182 0.598291 0.116728
0.119902 0.586081 0.130403
0.118926 0.570452 0.160684
0.118926 0.602686 0.236142
0.123565 0.650794 0.323810
0.141880 0.719414 0.486447
0.160928 0.772650 0.678388
0.170452 0.771184 0.770940
0.171917 0.740171 0.782173
0.170208 0.697192 0.778510
0.166545 0.655189 0.765079
0.163858 0.629060 0.768254
0.161905 0.614896 0.782173
0.161416 0.606593 0.800733
0.162882 0.607082 0.823443
0.164835 0.610989 0.845421
0.198535 0.657631 0.112332
0.154335 0.661050 0.121612
0.129670 0.653480 0.136508
0.126252 0.637607 0.157509
0.126252 0.670085 0.229060
0.128205 0.717949 0.316239
0.146520 0.767277 0.479609
0.166789 0.807814 0.673748
0.178266 0.817094 0.796825
0.180708 0.785104 0.813919
0.180464 0.748962 0.816850
0.177778 0.710623 0.808547
0.174603 0.676679 0.799512
0.172405 0.658364 0.807814
0.170940 0.646642 0.820757
0.170452 0.639560 0.837363
0.171673 0.638584 0.857143
0.222955 0.740415 0.118926
0.170940 0.741148 0.129182
0.139927 0.737973 0.143346
0.135531 0.723565 0.161661
0.130403 0.742369 0.207082
0.135531 0.780952 0.318193
0.151160 0.813187 0.474237
0.172161 0.842491 0.668376
0.185348 0.857631 0.809768
0.189744 0.829060 0.843468
0.189744 0.796093 0.847619
0.188278 0.759707 0.844689
0.185104 0.725031 0.835897
0.182662 0.697436 0.831013
0.180220 0.682784 0.840781
0.179243 0.673504 0.853236
0.178755 0.667155 0.867643
0.100855 0.057631 0.051770
0.097680 0.057875 0.069109
0.093529 0.062271 0.086447
0.083272 0.070085 0.104762
0.072039 0.080342 0.127961
0.068132 0.090598 0.155800
0.065201 0.100366 0.185348
0.064713 0.111600 0.216850
0.067643 0.126984 0.255189
0.071306 0.144322 0.297192
0.075458 0.163126 0.343346
0.079609 0.183883 0.394872
0.084493 0.206349 0.449084
0.089377 0.230525 0.504518
0.094750 0.256410 0.560928
0.099878 0.282540 0.611722
0.105739 0.310623 0.663492
