leica-film-sim/luts/lut-ccd.cube
# Synthetic CCD LUT - warm midtones, lifted shadows, rich skin tones
# Generated for YINGDIAO YISHUN Leica Film Simulator
TITLE "CCD Classic Color"
LUT_3D_SIZE 9
DOMAIN_MIN 0.0 0.0 0.0
DOMAIN_MAX 1.0 1.0 1.0
0.001259 0.000998 0.000678
0.050251 0.002795 0.002331
0.160087 0.005303 0.004692
0.314088 0.006674 0.005914
0.494008 0.005731 0.004817
0.680031 0.001963 0.000894
0.837020 0.001392 0.000194
0.949958 0.001466 0.000146
0.999342 0.001541 0.000105
0.004252 0.050824 0.003059
0.056398 0.052132 0.003103
0.171183 0.053733 0.002858
0.331092 0.053532 0.000790
0.509748 0.053623 0.000196
0.686438 0.054035 0.000148
0.840985 0.054449 0.000106
0.952380 0.054863 0.000072
0.999613 0.055280 0.000044
0.005263 0.160129 0.003351
0.059814 0.162610 0.000832
0.178075 0.166678 0.000198
0.336890 0.167333 0.000149
0.514975 0.167989 0.000108
0.691319 0.168646 0.000073
0.844913 0.169303 0.000045
0.954748 0.169962 0.000024
0.999813 0.170621 0.000009
0.002890 0.311566 0.000200
0.062206 0.312338 0.000151
0.182203 0.313111 0.000109
0.341871 0.322880 0.000074
0.520200 0.323683 0.000046
0.696181 0.324486 0.000024
0.848805 0.325290 0.000010
0.957061 0.326094 0.000002
0.999907 0.326381 0.000000
0.003560 0.481735 0.000111
0.064926 0.482561 0.000075
0.186365 0.483387 0.000047
0.346867 0.484213 0.000025
0.525423 0.500039 0.000010
0.701024 0.500891 0.000002
0.851544 0.501257 0.000000
0.956352 0.500405 0.000006
0.999755 0.499553 0.000018
0.004297 0.653879 0.000048
0.067695 0.654670 0.000026
0.190559 0.655460 0.000010
0.351878 0.656250 0.000002
0.529324 0.656648 0.000000
0.699711 0.675188 0.000005
0.847679 0.674383 0.000017
0.954022 0.673579 0.000036
0.999532 0.672774 0.000061
0.005102 0.809139 0.000011
0.070514 0.809804 0.000002
0.193872 0.810188 0.000000
0.350704 0.809523 0.000005
0.524103 0.808857 0.000017
0.694863 0.808190 0.000035
0.843776 0.827837 0.000060
0.951637 0.827174 0.000092
0.999238 0.826511 0.000131
0.005813 0.928492 0.000000
0.069956 0.928039 0.000005
0.189653 0.927585 0.000016
0.345696 0.927130 0.000034
0.518879 0.926673 0.000059
0.689995 0.926215 0.000091
0.839838 0.925756 0.000129
0.949199 0.941657 0.000174
0.998873 0.941229 0.000226
0.004954 0.992904 0.000016
0.067147 0.992747 0.000033
0.185466 0.992590 0.000058
0.340704 0.992430 0.000090
0.513654 0.992269 0.000128
0.685109 0.992106 0.000173
0.835863 0.991942 0.000224
0.946708 0.991775 0.000282
0.998438 0.997396 0.000347
0.002025 0.001708 0.042958
0.051625 0.003205 0.044995
0.162420 0.005217 0.047508
0.317578 0.005965 0.048718
0.498694 0.004337 0.047511
0.682491 0.001348 0.044604
0.837793 0.001420 0.043895
0.950433 0.001494 0.043192
0.999400 0.001570 0.042494
0.004440 0.051577 0.046052
0.057229 0.052584 0.046402
0.172995 0.053692 0.046233
0.332889 0.053369 0.044630
0.510764 0.053780 0.043921
0.687387 0.054193 0.043218
0.841751 0.054607 0.042520
0.952844 0.055022 0.041826
0.999658 0.055439 0.041138
0.004535 0.161152 0.046577
0.060052 0.163103 0.044656
0.178874 0.166928 0.043947
0.337856 0.167583 0.043244
0.515990 0.168239 0.042545
0.692265 0.168896 0.041852
0.845672 0.169554 0.041164
0.955201 0.170213 0.040480
0.999844 0.170873 0.039803
0.003015 0.311860 0.043973
0.062731 0.312632 0.043269
0.183009 0.313405 0.042571
0.342840 0.323186 0.041877
0.521215 0.323989 0.041189
0.697123 0.324793 0.040505
0.849556 0.325597 0.039827
0.957504 0.326401 0.039154
0.999883 0.326074 0.039427
0.003698 0.482050 0.042596
0.065460 0.482876 0.041903
0.187177 0.483702 0.041214
0.347839 0.484528 0.040531
0.526437 0.500363 0.039852
0.701962 0.501216 0.039179
0.850796 0.500932 0.039402
0.955904 0.500080 0.040077
0.999718 0.499228 0.040757
0.004448 0.654181 0.041239
0.068239 0.654971 0.040556
0.191377 0.655761 0.039877
0.352853 0.656551 0.039204
0.528310 0.656347 0.039378
0.698771 0.674881 0.040052
0.846924 0.674077 0.040732
0.953563 0.673272 0.041417
0.999480 0.672467 0.042107
0.005266 0.809392 0.039902
0.071067 0.810058 0.039228
0.193050 0.809934 0.039353
0.349730 0.809269 0.040027
0.523088 0.808603 0.040707
0.693919 0.807936 0.041392
0.843014 0.827584 0.042082
0.951168 0.826921 0.042777
0.999172 0.826258 0.043477
0.005641 0.928320 0.039328
0.069407 0.927866 0.040002
0.188837 0.927412 0.040682
0.344725 0.926956 0.041367
0.517864 0.926499 0.042056
0.689048 0.926041 0.042751
0.839068 0.925581 0.043451
0.948719 0.941494 0.044156
0.998794 0.941066 0.044866
0.004794 0.992844 0.040657
0.066607 0.992687 0.041341
0.184656 0.992529 0.042031
0.339736 0.992369 0.042726
0.512639 0.992207 0.043425
0.684158 0.992043 0.044130
0.835087 0.991878 0.044840
0.946218 0.991712 0.045555
0.998345 0.997358 0.046275
0.003500 0.003123 0.141465
0.053529 0.004133 0.145492
0.165103 0.005464 0.149774
0.321232 0.005402 0.152596
0.503357 0.002901 0.152914
0.683443 0.001375 0.151567
0.838564 0.001448 0.150384
0.950905 0.001523 0.149205
0.999456 0.001599 0.148028
0.004951 0.052086 0.148414
0.058224 0.053192 0.150717
0.174788 0.053617 0.152257
0.333852 0.053525 0.151611
0.511779 0.053937 0.150428
0.688336 0.054350 0.149248
0.842515 0.054765 0.148072
0.953306 0.055181 0.146899
0.999699 0.055598 0.145730
0.003787 0.162152 0.152393
0.060568 0.163343 0.151655
0.179674 0.167177 0.150471
0.338823 0.167833 0.149291
0.517005 0.168490 0.148115
0.693210 0.169147 0.146942
0.846429 0.169805 0.145773
0.955653 0.170465 0.144607
0.999871 0.171125 0.143444
0.003142 0.312154 0.150515
0.063257 0.312927 0.149335
0.183816 0.313700 0.148158
0.343810 0.323492 0.146985
0.522229 0.324295 0.145816
0.698065 0.325099 0.144650
0.850306 0.325903 0.143487
0.957751 0.326572 0.142523
0.999857 0.325768 0.143683
0.003838 0.482365 0.148201
0.065995 0.483191 0.147028
0.187990 0.484017 0.145858
0.348812 0.484843 0.144692
0.527451 0.500688 0.143530
0.702666 0.501460 0.142481
0.850047 0.500607 0.143640
0.955453 0.499755 0.144803
0.999677 0.498903 0.145969
0.004602 0.654482 0.145901
0.068784 0.655273 0.144735
0.192196 0.656063 0.143573
0.353773 0.656835 0.142438
0.527296 0.656046 0.143597
0.697830 0.674574 0.144760
0.846167 0.673770 0.145927
0.953102 0.672965 0.147096
0.999426 0.672160 0.148270
0.005432 0.809646 0.143615
0.071623 0.810311 0.142456
0.192229 0.809681 0.143555
0.348757 0.809015 0.144717
0.522074 0.808348 0.145884
0.692974 0.807681 0.147053
0.842251 0.827332 0.148226
0.950696 0.826668 0.149403
0.999104 0.826004 0.150583
0.005471 0.928147 0.143512
0.068859 0.927693 0.144675
0.188022 0.927238 0.145841
0.343755 0.926782 0.147010
0.516850 0.926324 0.148183
0.688100 0.925865 0.149360
0.838298 0.925405 0.150540
0.948238 0.941331 0.151724
0.998712 0.940902 0.152911
0.004638 0.992785 0.145798
0.066069 0.992627 0.146967
0.183848 0.992468 0.148140
0.338769 0.992307 0.149317
0.511624 0.992145 0.150497
0.683206 0.991981 0.151680
0.834309 0.991815 0.152867
0.945726 0.991648 0.154057
0.998250 0.997320 0.155251
0.005230 0.004790 0.279840
0.055569 0.005187 0.286999
0.167800 0.005709 0.294200
0.324776 0.004708 0.299796
0.507567 0.001331 0.302731
0.684395 0.001403 0.301250
0.839334 0.001476 0.299771
0.951375 0.001552 0.298294
0.999509 0.001629 0.296819
0.005498 0.053193 0.292924
0.059106 0.053679 0.298313
0.176344 0.053291 0.302729
0.334817 0.053682 0.301305
0.512794 0.054094 0.299826
0.689284 0.054508 0.298349
0.843278 0.054923 0.296873
0.953766 0.055340 0.295400
0.999738 0.055758 0.293929
0.002799 0.166075 0.302621
0.061087 0.166772 0.301359
0.180476 0.167427 0.299880
0.339790 0.168083 0.298403
0.518019 0.168740 0.296928
0.694154 0.169398 0.295454
0.847185 0.170057 0.293983
0.956102 0.170716 0.292513
0.999897 0.171377 0.291046
0.003272 0.312449 0.299935
0.063785 0.313222 0.298457
0.184624 0.313995 0.296982
0.344780 0.323798 0.295508
0.523243 0.324602 0.294037
0.699005 0.325406 0.292567
0.851055 0.326210 0.291100
0.957309 0.326266 0.290999
0.999828 0.325461 0.292466
0.003981 0.482680 0.297036
0.066533 0.483506 0.295563
0.188804 0.484332 0.294091
0.349785 0.485158 0.292621
0.528465 0.501013 0.291153
0.718235 0.507134 0.279986
0.862392 0.506282 0.281439
0.962716 0.505430 0.282893
0.999997 0.504578 0.284350
0.004758 0.654784 0.294145
0.069332 0.655574 0.292675
0.193017 0.656364 0.291207
0.352798 0.656534 0.290891
0.526282 0.655744 0.292358
0.713466 0.679920 0.282840
0.858636 0.679119 0.284296
0.960542 0.678317 0.285755
0.999980 0.677515 0.287215
0.005601 0.809900 0.291261
0.071143 0.810092 0.290837
0.191410 0.809427 0.292304
0.347784 0.808761 0.293773
0.521060 0.808094 0.295245
0.708677 0.812255 0.285701
0.854840 0.831726 0.287162
0.958314 0.831068 0.288624
0.999890 0.830410 0.290088
0.005304 0.927974 0.292250
0.068313 0.927520 0.293719
0.187209 0.927064 0.295190
0.342785 0.926607 0.296664
0.515835 0.926149 0.298139
0.703866 0.928996 0.288570
0.851007 0.928544 0.290035
0.956030 0.944151 0.291501
0.999729 0.943732 0.292969
0.004484 0.992725 0.295136
0.065533 0.992567 0.296609
0.183041 0.992407 0.298084
0.337802 0.992245 0.299561
0.510609 0.992082 0.301040
0.699035 0.993076 0.291447
0.847136 0.992922 0.292915
0.953692 0.992765 0.294385
0.999495 0.997945 0.295857
0.006853 0.006347 0.441008
0.057443 0.006063 0.451977
0.170268 0.005709 0.462786
0.328026 0.003702 0.471852
0.508582 0.001358 0.475359
0.685346 0.001431 0.473764
0.840103 0.001505 0.472168
0.951844 0.001581 0.470572
0.999559 0.001659 0.468977
0.005808 0.054062 0.461569
0.059691 0.053859 0.470738
0.177158 0.053428 0.475418
0.335781 0.053839 0.473822
0.513809 0.054252 0.472227
0.690231 0.054666 0.470631
0.844040 0.055082 0.469036
0.954224 0.055499 0.467441
0.999775 0.055917 0.465846
0.002750 0.166367 0.475477
0.061607 0.167022 0.473881
0.181279 0.167677 0.472285
0.340758 0.168334 0.470690
0.519034 0.168991 0.469095
0.695098 0.169649 0.467500
0.847940 0.170308 0.465905
0.956550 0.170968 0.464311
0.999919 0.171629 0.462717
0.003404 0.321696 0.472344
0.064314 0.322499 0.470748
0.185433 0.323301 0.469153
0.345751 0.324105 0.467558
0.524258 0.324908 0.465964
0.699945 0.325712 0.464369
0.851803 0.326517 0.462775
0.956865 0.325959 0.463881
0.999796 0.325154 0.465475
0.004127 0.482995 0.469212
0.067073 0.483821 0.467617
0.189620 0.484647 0.466022
0.350758 0.485473 0.464428
0.529479 0.501338 0.462834
0.717310 0.506810 0.451861
0.861666 0.505957 0.453452
0.962298 0.505105 0.455044
1.000000 0.504253 0.456636
0.004916 0.655085 0.466081
0.069881 0.655875 0.464487
0.193839 0.656665 0.462893
0.351823 0.656233 0.463764
0.525268 0.655443 0.465358
0.712538 0.679614 0.454985
0.857901 0.678813 0.456578
0.960114 0.678011 0.458170
0.999968 0.677209 0.459763
0.005773 0.810153 0.462951
0.070590 0.809839 0.463705
0.190591 0.809173 0.465299
0.346812 0.808507 0.466894
0.520045 0.807840 0.468489
0.707744 0.812002 0.458112
0.854099 0.831475 0.459705
0.957874 0.830818 0.461298
0.999865 0.830159 0.462892
0.005140 0.927801 0.465241
0.067769 0.927346 0.466835
0.186397 0.926890 0.468430
0.341816 0.926433 0.470025
0.514820 0.925975 0.471620
0.702929 0.928824 0.461239
0.850258 0.928372 0.462833
0.955580 0.943991 0.464427
0.999689 0.943571 0.466021
0.004332 0.992665 0.468371
0.064999 0.992506 0.469966
0.182236 0.992346 0.471562
0.336836 0.992184 0.473157
0.509593 0.992020 0.474753
0.698095 0.993017 0.464368
0.846380 0.992862 0.465963
0.953232 0.992706 0.467557
0.999442 0.997911 0.469152
0.008099 0.007523 0.607180
0.058940 0.006551 0.622173
0.172358 0.005313 0.636811
0.330893 0.002292 0.649578
0.509597 0.001386 0.650750
0.686296 0.001459 0.649217
0.840870 0.001534 0.647684
0.952310 0.001610 0.646149
0.999606 0.001689 0.644613
0.005729 0.054542 0.635649
0.059885 0.053639 0.648828
0.177956 0.053584 0.650806
0.336746 0.053996 0.649274
0.514824 0.054410 0.647740
0.691178 0.054825 0.646206
0.844800 0.055241 0.644670
0.954680 0.055658 0.643132
0.999808 0.056077 0.641593
0.002872 0.166617 0.650862
0.062128 0.167272 0.649330
0.182083 0.167927 0.647797
0.341726 0.168584 0.646262
0.520049 0.169242 0.644726
0.696041 0.169900 0.643189
0.848693 0.170560 0.641650
0.956995 0.171220 0.640110
0.999911 0.171531 0.639385
0.003539 0.322002 0.647853
0.064846 0.322805 0.646319
0.186244 0.323608 0.644783
0.346722 0.324411 0.643245
0.525272 0.325215 0.641707
0.700884 0.326019 0.640167
0.851656 0.326457 0.639329
0.956419 0.325652 0.640869
0.999761 0.324848 0.642409
0.004275 0.498254 0.644839
0.067614 0.499107 0.643302
0.190437 0.499959 0.641763
0.351733 0.500811 0.640223
0.529475 0.501337 0.639272
0.716385 0.506485 0.629211
0.860938 0.505633 0.630759
0.961878 0.504780 0.632307
0.999999 0.503928 0.633853
0.005077 0.655386 0.641820
0.070432 0.656176 0.640280
0.193995 0.656722 0.639215
0.350849 0.655932 0.640756
0.524254 0.655142 0.642296
0.711608 0.679309 0.632250
0.857166 0.678507 0.633797
0.959683 0.677705 0.635342
0.999954 0.676902 0.636886
0.005839 0.810250 0.639159
0.070038 0.809585 0.640699
0.189774 0.808919 0.642239
0.345841 0.808253 0.643777
0.519030 0.807585 0.645314
0.706811 0.811750 0.635285
0.853356 0.831225 0.636829
0.957433 0.830567 0.638372
0.999836 0.829908 0.639913
0.004978 0.927628 0.642182
0.067227 0.927173 0.643721
0.185586 0.926716 0.645258
0.340848 0.926258 0.646793
0.513805 0.925799 0.648327
0.701992 0.928652 0.638315
0.849508 0.928199 0.639856
0.955128 0.943831 0.641397
0.999646 0.943411 0.642936
0.004183 0.992604 0.645201
0.064466 0.992445 0.646737
0.181431 0.992284 0.648271
0.335871 0.992121 0.649804
0.508578 0.991957 0.651335
0.697153 0.992958 0.641340
0.845623 0.992803 0.642879
0.952769 0.992645 0.644417
0.999385 0.997877 0.645953
0.008790 0.008140 0.759850
0.059942 0.006533 0.778616
0.174009 0.004463 0.796841
0.332745 0.001341 0.810298
0.510612 0.001413 0.809012
0.687246 0.001487 0.807723
0.841636 0.001563 0.806431
0.952775 0.001640 0.805136
0.999651 0.001720 0.803837
0.005201 0.054570 0.795745
0.059975 0.053330 0.810346
0.178755 0.053741 0.809060
0.337712 0.054154 0.807770
0.515839 0.054568 0.806478
0.692124 0.054983 0.805183
0.845559 0.055400 0.803885
0.955134 0.055818 0.802584
0.999839 0.056237 0.801280
0.002996 0.166866 0.809107
0.062652 0.167521 0.807818
0.182889 0.168178 0.806526
0.342695 0.168835 0.805231
0.521063 0.169493 0.803933
0.696983 0.170151 0.802632
0.849444 0.170811 0.801328
0.957438 0.171472 0.800022
0.999887 0.171279 0.800404
0.003677 0.322308 0.806573
0.065380 0.323111 0.805279
0.187055 0.323914 0.803981
0.347694 0.324717 0.802680
0.526286 0.325521 0.801376
0.701822 0.326326 0.800070
0.850908 0.326150 0.800356
0.955971 0.325345 0.801662
0.999723 0.324542 0.802965
0.004425 0.498579 0.804029
0.068158 0.499431 0.802728
0.191255 0.500284 0.801424
0.352708 0.501136 0.800118
0.528461 0.501012 0.800308
0.715459 0.506160 0.791734
0.860208 0.505308 0.793059
0.961456 0.504456 0.794381
0.999996 0.503603 0.795700
0.005241 0.675014 0.801472
0.070985 0.675818 0.800166
0.193173 0.675760 0.800260
0.349875 0.674956 0.801566
0.523240 0.674152 0.802869
0.710678 0.679003 0.794332
0.856429 0.678201 0.795652
0.959251 0.677399 0.796968
0.999937 0.676596 0.798281
0.005666 0.809997 0.800212
0.069488 0.809331 0.801518
0.188959 0.808665 0.802821
0.344870 0.807998 0.804122
0.518016 0.807330 0.805419
0.705876 0.811497 0.796919
0.852611 0.830974 0.798233
0.956990 0.830316 0.799544
0.999805 0.829656 0.800851
0.004818 0.927454 0.802773
0.066687 0.926999 0.804074
0.184777 0.926542 0.805371
0.339880 0.926083 0.806666
0.512790 0.925624 0.807958
0.701054 0.928479 0.799496
0.848756 0.928026 0.800803
0.954674 0.943671 0.802108
0.999601 0.943250 0.803410
0.004036 0.992544 0.805324
0.063936 0.992384 0.806619
0.180628 0.992222 0.807910
0.334906 0.992059 0.809199
0.507563 0.991894 0.810485
0.696211 0.992899 0.802060
0.844864 0.992743 0.803363
0.952305 0.992585 0.804662
0.999327 0.997843 0.805958
0.008840 0.008112 0.879797
0.060423 0.005982 0.901620
0.175257 0.003192 0.922727
0.333709 0.001368 0.931121
0.511627 0.001441 0.930258
0.688195 0.001516 0.929391
0.842401 0.001592 0.928519
0.953237 0.001670 0.927642
0.999693 0.001750 0.926761
0.004255 0.054179 0.921725
0.060491 0.053487 0.931152
0.179555 0.053898 0.930290
0.338679 0.054311 0.929423
0.516853 0.054726 0.928551
0.693069 0.055142 0.927675
0.846316 0.055559 0.926794
0.955586 0.055978 0.925908
0.999867 0.056398 0.925018
0.003123 0.167116 0.930322
0.063178 0.167772 0.929455
0.183695 0.168428 0.928583
0.343665 0.169085 0.927707
0.522078 0.169744 0.926826
0.697924 0.170403 0.925941
0.850195 0.171063 0.925051
0.957816 0.171688 0.924206
0.999861 0.171027 0.925100
0.003817 0.322614 0.928615
0.065915 0.323417 0.927739
0.187868 0.324220 0.926859
0.348666 0.325024 0.925973
0.527300 0.325828 0.925084
0.702760 0.326633 0.924190
0.850159 0.325843 0.925067
0.955521 0.325039 0.925957
0.999683 0.324235 0.926842
0.004578 0.498904 0.926891
0.068703 0.499756 0.926006
0.192074 0.500609 0.925117
0.353683 0.501461 0.924222
0.527448 0.500687 0.925034
0.714532 0.505835 0.919130
0.859477 0.504983 0.920050
0.961032 0.504131 0.920964
0.999990 0.503279 0.921875
0.005407 0.675320 0.925149
0.071540 0.676124 0.924255
0.192352 0.675454 0.925001
0.348902 0.674650 0.925892
0.522225 0.673845 0.926777
0.709747 0.678698 0.920931
0.855690 0.677896 0.921841
0.958816 0.677093 0.922747
0.999917 0.676290 0.923648
0.005496 0.830037 0.924969
0.068940 0.829378 0.925859
0.188144 0.828717 0.926745
0.343900 0.828056 0.927626
0.517001 0.827394 0.928502
0.704941 0.831381 0.922714
0.851866 0.830723 0.923615
0.956544 0.830064 0.924512
0.999771 0.829405 0.925405
0.004661 0.927281 0.926712
0.066149 0.926825 0.927593
0.183969 0.926367 0.928470
0.338913 0.925908 0.929342
0.511775 0.925449 0.930210
0.700115 0.928307 0.924480
0.848003 0.927853 0.925372
0.954218 0.943511 0.926260
0.999553 0.943089 0.927144
0.003892 0.992483 0.928438
0.063407 0.992322 0.929310
0.179826 0.992160 0.930178
0.333942 0.991996 0.931041
0.506548 0.991831 0.931900
0.695269 0.992840 0.926228
0.844104 0.992683 0.927112
0.951838 0.992524 0.927991
0.999265 0.997809 0.928866
0.008254 0.007445 0.947084
0.060449 0.004965 0.970785
0.176226 0.001626 0.993602
0.334673 0.001396 0.994858
0.512642 0.001469 0.994598
0.689143 0.001545 0.994331
0.843164 0.001622 0.994059
0.953697 0.001701 0.993780
0.999733 0.001781 0.993495
0.003014 0.053491 0.992739
0.061009 0.053644 0.994868
0.180356 0.054056 0.994608
0.339646 0.054469 0.994341
0.517868 0.054884 0.994069
0.694013 0.055301 0.993790
0.847072 0.055718 0.993505
0.956035 0.056138 0.993214
0.999893 0.056558 0.992917
0.003253 0.167366 0.994617
0.063706 0.168022 0.994351
0.184503 0.168679 0.994079
0.344635 0.169336 0.993801
0.523092 0.169995 0.993516
0.698865 0.170654 0.993225
0.850944 0.171315 0.992928
0.957375 0.171436 0.992874
0.999832 0.170775 0.993172
0.003960 0.322920 0.994089
0.066453 0.323723 0.993811
0.188683 0.324527 0.993527
0.349640 0.325330 0.993236
0.528314 0.326135 0.992939
0.701868 0.326341 0.992862
0.849409 0.325536 0.993161
0.955068 0.324732 0.993453
0.999641 0.323929 0.993739
0.004734 0.499229 0.993537
0.069250 0.500081 0.993247
0.192895 0.500933 0.992950
0.352943 0.501214 0.992851
0.526434 0.500362 0.993150
0.713605 0.505510 0.991097
0.858745 0.504658 0.991429
0.960606 0.503806 0.991755
0.999982 0.502954 0.992075
0.005576 0.675627 0.992961
0.071226 0.675951 0.992840
0.191532 0.675147 0.993139
0.347929 0.674343 0.993432
0.521211 0.673539 0.993718
0.708816 0.678392 0.991743
0.854951 0.677590 0.992064
0.958379 0.676787 0.992378
0.999894 0.675984 0.992685
0.005329 0.829786 0.993128
0.068394 0.829126 0.993421
0.187330 0.828465 0.993707
0.342930 0.827804 0.993988
0.515986 0.827141 0.994262
0.704006 0.831130 0.992366
0.851118 0.830472 0.992674
0.956097 0.829813 0.992976
0.999734 0.829153 0.993272
0.004506 0.943333 0.993697
0.065613 0.942911 0.993978
0.183161 0.942487 0.994252
0.337946 0.942062 0.994520
0.510760 0.941636 0.994782
0.699175 0.944190 0.992965
0.847249 0.943771 0.993261
0.953760 0.943350 0.993551
0.999503 0.942928 0.993835
0.003751 0.992422 0.994242
0.062881 0.992261 0.994511
0.179026 0.992098 0.994773
0.332978 0.991933 0.995029
0.505533 0.991767 0.995279
0.694325 0.992780 0.993541
0.843342 0.992623 0.993825
0.951370 0.992463 0.994103
0.999201 0.997774 0.994374
