leica-film-sim/luts/lut-ektar.cube
#Created from IWLTBAP Aspen 3DL LUT (F-8700-LOG variant)
#Converted from .3dl to .cube format
TITLE "IWLTBAP Aspen"
LUT_3D_SIZE 9
0.035897 0.041270 0.046642
0.036142 0.052015 0.079853
0.035165 0.066911 0.125031
0.037363 0.088156 0.186325
0.042735 0.116484 0.260562
0.050061 0.152869 0.353114
0.059096 0.197802 0.463492
0.069353 0.249573 0.578755
0.079853 0.302808 0.675946
0.042979 0.082295 0.057631
0.042247 0.076435 0.089377
0.041026 0.088889 0.137729
0.043956 0.113309 0.202442
0.049817 0.145788 0.282540
0.057631 0.185836 0.384860
0.066911 0.233211 0.499145
0.077167 0.285958 0.608547
0.087179 0.337729 0.701099
0.048596 0.131136 0.062027
0.046642 0.153114 0.115751
0.048352 0.128694 0.153602
0.051282 0.144078 0.222222
0.057631 0.177534 0.309646
0.066178 0.220513 0.417582
0.075702 0.271062 0.535287
0.085714 0.323810 0.638584
0.095726 0.373871 0.725031
0.052503 0.192674 0.065201
0.046886 0.221978 0.095726
0.061050 0.258364 0.220513
0.061294 0.202198 0.247863
0.066911 0.216850 0.342613
0.075702 0.261050 0.456654
0.085470 0.313065 0.571429
0.095482 0.365324 0.670818
0.105006 0.411477 0.749451
0.058608 0.268132 0.074969
0.052991 0.297436 0.098657
0.070330 0.372405 0.221245
0.083272 0.367766 0.371673
0.079853 0.288156 0.387057
0.086935 0.310623 0.502076
0.096459 0.359219 0.609280
0.105739 0.406105 0.700611
0.114774 0.448840 0.772161
0.069597 0.358486 0.087179
0.063248 0.383639 0.112088
0.075214 0.454701 0.195849
0.109158 0.564591 0.510134
0.105739 0.449328 0.514774
0.102564 0.398046 0.553358
0.109158 0.418071 0.649328
0.117216 0.451770 0.729182
0.125275 0.487179 0.793162
0.082295 0.452991 0.099145
0.074969 0.468376 0.126496
0.085470 0.529182 0.205128
0.125031 0.659829 0.558486
0.136264 0.643956 0.680098
0.127473 0.534310 0.648352
0.125275 0.504762 0.693040
0.130159 0.517216 0.758730
0.136508 0.539927 0.814896
0.096703 0.543101 0.111355
0.089133 0.544078 0.140904
0.101587 0.603175 0.250305
0.136020 0.735775 0.559951
0.156288 0.752625 0.766056
0.153358 0.671306 0.760195
0.147497 0.610989 0.756532
0.145543 0.589744 0.789499
0.149451 0.596825 0.837118
0.113065 0.682540 0.123321
0.106227 0.672772 0.154579
0.105495 0.743834 0.228083
0.147009 0.820269 0.555311
0.173871 0.842979 0.827350
0.174847 0.776313 0.840293
0.169231 0.706471 0.823443
0.165079 0.669597 0.833700
0.163614 0.654701 0.860562
0.066667 0.052015 0.051526
0.061050 0.060562 0.083761
0.057387 0.076923 0.128205
0.054457 0.094505 0.182418
0.059341 0.123321 0.255433
0.066911 0.159219 0.346276
0.075946 0.203175 0.454945
0.086203 0.254457 0.568987
0.097192 0.308913 0.669597
0.071551 0.089866 0.058120
0.067155 0.086447 0.094505
0.061783 0.099145 0.145543
0.059096 0.122344 0.213431
0.065446 0.156288 0.298413
0.073504 0.196581 0.403419
0.083028 0.244933 0.519414
0.093529 0.297680 0.624420
0.103785 0.349451 0.713797
0.072283 0.149206 0.064713
0.071795 0.149695 0.102076
0.068132 0.143101 0.164591
0.066911 0.157021 0.237118
0.073993 0.192674 0.329915
0.082540 0.236874 0.440781
0.092063 0.286935 0.555067
0.102076 0.338217 0.654457
0.111600 0.385104 0.736264
0.074481 0.210745 0.066422
0.072283 0.216361 0.092552
0.074725 0.268620 0.210989
0.077411 0.218803 0.264957
0.083272 0.233700 0.365568
0.092308 0.280342 0.481807
0.102076 0.330891 0.590476
0.111844 0.380464 0.685470
0.120879 0.424176 0.759951
0.081319 0.296947 0.075702
0.077656 0.299878 0.094994
0.078632 0.358486 0.181929
0.101099 0.411233 0.397558
0.096703 0.310867 0.410745
0.103785 0.331624 0.526740
0.113065 0.378755 0.629060
0.122344 0.423687 0.715751
0.130647 0.462759 0.781929
0.093040 0.396093 0.086935
0.089377 0.393895 0.106471
0.083516 0.441758 0.164591
0.120879 0.566789 0.480830
0.124786 0.493284 0.550672
0.119658 0.424176 0.576068
0.125763 0.439805 0.667399
0.133578 0.470818 0.743101
0.140904 0.501343 0.802930
0.107692 0.498413 0.097924
0.103297 0.491819 0.118437
0.097924 0.525031 0.191697
0.131868 0.640293 0.491331
0.152137 0.670818 0.694261
0.145055 0.562637 0.670085
0.141880 0.526984 0.708669
0.146276 0.534554 0.771917
0.152137 0.554335 0.823932
0.156777 0.599267 0.106960
0.119902 0.586081 0.130403
0.118926 0.602686 0.236142
0.141880 0.719414 0.486447
0.170452 0.771184 0.770940
0.170208 0.697192 0.778510
0.163858 0.629060 0.768254
0.161416 0.606593 0.800733
0.164835 0.610989 0.845421
0.222955 0.740415 0.118926
0.139927 0.737973 0.143346
0.130403 0.742369 0.207082
0.151160 0.813187 0.474237
0.185348 0.857631 0.809768
0.189744 0.796093 0.847619
0.185104 0.725031 0.835897
0.180220 0.682784 0.840781
0.178755 0.667155 0.867643
0.146276 0.064713 0.051282
0.134310 0.066667 0.085714
0.110867 0.079609 0.128449
0.078388 0.106471 0.186569
0.076435 0.132112 0.256166
0.084249 0.168254 0.343101
0.093040 0.210012 0.444200
0.103297 0.259096 0.553358
0.114530 0.313065 0.657631
0.172161 0.096215 0.053968
0.146032 0.104762 0.095482
0.111600 0.115263 0.146520
0.083028 0.132845 0.210989
0.083272 0.164103 0.292552
0.091331 0.204396 0.394139
0.100611 0.250305 0.504518
0.110867 0.301099 0.610012
0.121856 0.355311 0.707448
0.196337 0.143834 0.057387
0.171184 0.155800 0.091819
0.114530 0.160440 0.170940
0.088645 0.171917 0.253236
0.092063 0.208791 0.355067
0.100855 0.253480 0.469353
0.110379 0.302564 0.578510
0.119902 0.351404 0.672283
0.129670 0.397558 0.749939
0.189499 0.244444 0.063248
0.138462 0.250061 0.083272
0.104762 0.257143 0.166056
0.098413 0.242002 0.286691
0.102564 0.256166 0.393895
0.111844 0.304274 0.512576
0.121368 0.353114 0.616606
0.130647 0.398535 0.704274
0.139194 0.438584 0.773138
0.199023 0.342857 0.073016
0.141880 0.341148 0.091819
0.109402 0.347009 0.150672
0.118681 0.437607 0.399267
0.116972 0.339927 0.439805
0.123810 0.358974 0.555800
0.133089 0.403419 0.654945
0.141392 0.444200 0.733333
0.149206 0.478144 0.793407
0.242002 0.454945 0.083272
0.179731 0.449328 0.102320
0.119414 0.444444 0.147497
0.131136 0.550183 0.414408
0.147009 0.542857 0.589011
0.140171 0.454457 0.603419
0.145543 0.465934 0.690598
0.152869 0.492796 0.759463
0.159707 0.520147 0.814408
0.300611 0.566300 0.093529
0.241758 0.559463 0.113065
0.143346 0.547253 0.158730
0.142369 0.616117 0.406349
0.169475 0.693773 0.702320
0.165812 0.593407 0.694750
0.161661 0.552137 0.728205
0.165324 0.556044 0.787302
0.170940 0.573626 0.834921
0.371917 0.666422 0.104762
0.319902 0.660317 0.124786
0.194628 0.673260 0.176801
0.162149 0.698413 0.407814
0.184860 0.787057 0.755556
0.189255 0.724542 0.793407
0.183150 0.650305 0.781441
0.180220 0.625885 0.813187
0.183150 0.627106 0.855922
0.433700 0.790476 0.116972
0.386569 0.789988 0.137485
0.293040 0.794872 0.167277
0.186813 0.804396 0.394872
0.196093 0.860562 0.754090
0.207082 0.816850 0.854212
0.204151 0.747741 0.849817
0.198779 0.699634 0.849084
0.196825 0.682540 0.875946
0.253968 0.074237 0.047375
0.242979 0.077167 0.085958
0.227106 0.082784 0.120147
0.171184 0.106227 0.180708
0.100122 0.145055 0.255189
0.102320 0.179487 0.343101
0.111600 0.221245 0.440781
0.121123 0.265934 0.539927
0.132845 0.321123 0.650305
0.289377 0.107937 0.052259
0.286935 0.112088 0.078877
0.245910 0.123077 0.138462
0.172894 0.147741 0.205861
0.108181 0.176313 0.288400
0.109646 0.212210 0.381929
0.118926 0.257387 0.489133
0.129182 0.306716 0.595116
0.140904 0.362637 0.700855
0.344811 0.150672 0.063736
0.330159 0.154335 0.079853
0.288645 0.180220 0.156532
0.181685 0.198046 0.242735
0.120635 0.221490 0.344078
0.119658 0.261294 0.453724
0.129426 0.310379 0.566300
0.139438 0.360684 0.667155
0.149695 0.409035 0.751893
0.410012 0.214408 0.069841
0.397070 0.227106 0.085226
0.349451 0.259096 0.127228
0.191941 0.279609 0.296947
0.136996 0.286447 0.427839
0.133333 0.326496 0.542857
0.142369 0.374603 0.645177
0.150672 0.416361 0.726252
0.158730 0.453480 0.788034
0.447863 0.397558 0.094261
0.411966 0.408059 0.104762
0.323077 0.413431 0.120391
0.174359 0.431502 0.308425
0.155067 0.387057 0.483761
0.148230 0.391697 0.586325
0.155556 0.431502 0.681807
0.163126 0.467643 0.754090
0.169963 0.497680 0.810012
0.493529 0.538217 0.095726
0.438828 0.536264 0.101099
0.346764 0.527961 0.127717
0.189499 0.536020 0.296215
0.175824 0.588034 0.615629
0.166789 0.489621 0.634188
0.168010 0.495238 0.714530
0.174847 0.520147 0.779731
0.180952 0.541880 0.829548
0.533333 0.649328 0.094750
0.483272 0.643223 0.110623
0.406349 0.637607 0.141148
0.245665 0.642491 0.310623
0.201954 0.711844 0.681563
0.188767 0.627839 0.719902
0.184371 0.578266 0.747741
0.186813 0.579243 0.803175
0.191941 0.594383 0.847863
0.576557 0.742613 0.103541
0.535043 0.738462 0.122833
0.475946 0.737973 0.172161
0.341148 0.750427 0.326252
0.224664 0.783639 0.646886
0.210501 0.752381 0.803907
0.204640 0.673260 0.794872
0.201221 0.645910 0.826374
0.203419 0.644689 0.866422
0.612698 0.837607 0.117460
0.577778 0.837118 0.137241
0.535043 0.840293 0.186813
0.447619 0.856899 0.322589
0.250305 0.846886 0.600488
0.235653 0.851038 0.863248
0.224664 0.772894 0.862271
0.219292 0.716972 0.857631
0.216850 0.698168 0.884005
0.382173 0.085714 0.057631
0.373626 0.088645 0.081074
0.353358 0.098168 0.130647
0.331136 0.106716 0.162149
0.227106 0.143590 0.242491
0.133333 0.192430 0.335287
0.129915 0.229060 0.430037
0.140415 0.276435 0.533089
0.152625 0.334554 0.652747
0.430525 0.123565 0.065934
0.432967 0.123565 0.081319
0.410012 0.135531 0.136020
0.360928 0.152137 0.184127
0.239560 0.191209 0.271551
0.144567 0.230037 0.377778
0.137729 0.262027 0.464225
0.148230 0.314286 0.580952
0.160684 0.373138 0.697192
0.502564 0.171673 0.078144
0.500366 0.179487 0.088889
0.500366 0.181929 0.122833
0.412698 0.223443 0.225885
0.285714 0.255189 0.318926
0.163614 0.280098 0.436630
0.153846 0.317949 0.541880
0.159219 0.368498 0.653724
0.170452 0.420757 0.749939
0.585836 0.232967 0.092552
0.585348 0.242002 0.101099
0.565568 0.258364 0.118193
0.491087 0.321368 0.269841
0.339438 0.350672 0.403419
0.191453 0.353846 0.529426
0.180464 0.395849 0.640781
0.174603 0.431990 0.727717
0.180708 0.468864 0.795604
0.673260 0.327961 0.087424
0.667155 0.347741 0.096459
0.640049 0.392430 0.125763
0.566789 0.455678 0.212454
0.359707 0.480342 0.504762
0.224176 0.447619 0.624420
0.209035 0.473748 0.715507
0.195849 0.495238 0.778510
0.191941 0.515751 0.825397
0.681807 0.581197 0.115018
0.659585 0.600733 0.131624
0.627595 0.613919 0.148962
0.540415 0.619536 0.259829
0.366545 0.626618 0.535775
0.249328 0.554579 0.670574
0.233211 0.549206 0.746520
0.215873 0.558242 0.803175
0.204640 0.566545 0.844444
0.709158 0.707937 0.123321
0.686935 0.711355 0.134554
0.646154 0.714774 0.145788
0.567766 0.708913 0.318681
0.447375 0.709890 0.517705
0.267399 0.703541 0.756777
0.258608 0.629792 0.772650
0.240293 0.620513 0.822955
0.218803 0.619048 0.861783
0.727228 0.793895 0.122344
0.703297 0.796581 0.130647
0.668132 0.799267 0.156532
0.612454 0.794139 0.345788
0.531624 0.802442 0.493040
0.299634 0.808547 0.794383
0.255678 0.718926 0.820024
0.261783 0.684737 0.842002
0.238584 0.670818 0.878632
0.746520 0.874237 0.124054
0.721856 0.873993 0.143101
0.688889 0.873260 0.186813
0.649573 0.869841 0.363126
0.608547 0.880342 0.475214
0.361661 0.881807 0.737973
0.283516 0.824664 0.881563
0.255678 0.743834 0.868132
0.260562 0.724786 0.895482
0.543834 0.103785 0.071306
0.539438 0.109158 0.088400
0.509890 0.118193 0.128938
0.492063 0.126984 0.173382
0.458852 0.144322 0.207082
0.346520 0.189988 0.287912
0.231013 0.250794 0.414652
0.171184 0.293284 0.531136
0.173138 0.346764 0.652015
0.591209 0.142369 0.080830
0.597070 0.139194 0.096947
0.581197 0.149695 0.132845
0.544811 0.176557 0.192430
0.502076 0.196825 0.235897
0.396825 0.243223 0.315507
0.261050 0.304029 0.458608
0.189011 0.340171 0.584615
0.184860 0.386813 0.694017
0.656654 0.197802 0.094750
0.658120 0.209280 0.103785
0.663492 0.203663 0.126984
0.621734 0.255189 0.224664
0.559463 0.278144 0.286935
0.478388 0.321123 0.365568
0.306716 0.377534 0.535775
0.213675 0.399023 0.652747
0.204151 0.439805 0.747497
0.732601 0.270574 0.103541
0.732601 0.280342 0.107204
0.730891 0.301099 0.116972
0.701099 0.354579 0.242002
0.614896 0.404640 0.386569
0.545055 0.437118 0.473016
0.373138 0.468376 0.629792
0.256654 0.470085 0.723077
0.230525 0.496459 0.796093
0.797314 0.354335 0.099145
0.793407 0.364347 0.103297
0.780708 0.407570 0.123565
0.737729 0.490842 0.252991
0.664957 0.546520 0.493529
0.599756 0.563614 0.591453
0.468620 0.568254 0.706227
0.333333 0.550672 0.775824
0.258852 0.549939 0.829060
0.823443 0.501832 0.093284
0.812210 0.527473 0.110623
0.795360 0.576801 0.149695
0.773626 0.626129 0.199023
0.722344 0.664957 0.445177
0.652015 0.682051 0.660073
0.549695 0.656654 0.755067
0.414652 0.630525 0.810989
0.289377 0.603175 0.850794
0.803663 0.727473 0.129915
0.798535 0.752381 0.147497
0.789499 0.766300 0.169963
0.766056 0.773871 0.228083
0.719170 0.769963 0.478632
0.669109 0.768254 0.657387
0.581441 0.736020 0.783394
0.460562 0.697680 0.830769
0.312332 0.660806 0.866178
0.825641 0.832723 0.138706
0.816850 0.835165 0.153846
0.798291 0.836874 0.170940
0.765324 0.836386 0.323565
0.729426 0.831990 0.501099
0.697924 0.835409 0.636386
0.470085 0.821734 0.843956
0.482295 0.757998 0.849328
0.352381 0.715263 0.883028
0.830281 0.894750 0.138217
0.817582 0.895238 0.152869
0.798535 0.898657 0.187057
0.770452 0.894505 0.367033
0.746276 0.890598 0.501343
0.725275 0.897192 0.614408
0.516484 0.906960 0.821001
0.351893 0.809035 0.893284
0.386569 0.771184 0.899634
0.688400 0.122344 0.086203
0.686935 0.130403 0.103297
0.674237 0.143346 0.136264
0.638584 0.157509 0.181685
0.635165 0.162882 0.213675
0.609524 0.193407 0.251282
0.535775 0.252015 0.315263
0.425885 0.311111 0.493284
0.303541 0.405128 0.668864
0.722344 0.164103 0.095482
0.725275 0.156777 0.110867
0.718437 0.173871 0.140904
0.710134 0.208791 0.197802
0.674725 0.231502 0.245665
0.645421 0.259585 0.291087
0.590965 0.313797 0.356044
0.466911 0.380220 0.559463
0.354579 0.462027 0.716239
0.775580 0.235409 0.104518
0.779487 0.242247 0.108669
0.778266 0.231746 0.126740
0.779243 0.289866 0.215385
0.718681 0.331136 0.310379
0.683761 0.351404 0.359951
0.651526 0.405861 0.453968
0.531136 0.460806 0.641270
0.431502 0.528694 0.763614
0.835409 0.312821 0.101587
0.835165 0.321612 0.103541
0.831502 0.349206 0.111600
0.823932 0.391453 0.225641
0.764347 0.460806 0.415629
0.729182 0.472772 0.472039
0.691087 0.515751 0.581685
0.601709 0.540415 0.719414
0.520879 0.601954 0.811722
0.875214 0.397802 0.094505
0.870085 0.412210 0.100122
0.859096 0.463492 0.127473
0.839316 0.540415 0.235165
0.801709 0.581441 0.491575
0.765568 0.603419 0.596093
0.737485 0.617094 0.674969
0.670574 0.635165 0.777045
0.601954 0.673260 0.844444
0.891819 0.518193 0.096459
0.885226 0.537485 0.111844
0.882540 0.578755 0.149206
0.860317 0.638095 0.222466
0.826374 0.684982 0.490842
0.796337 0.707448 0.655433
0.775092 0.710379 0.731380
0.723810 0.725031 0.810256
0.659829 0.732357 0.863736
0.894505 0.676435 0.127961
0.890110 0.690842 0.142125
0.887668 0.719902 0.170696
0.873993 0.750427 0.210256
0.854212 0.773138 0.352625
0.827595 0.786081 0.606105
0.794383 0.794383 0.759463
0.756777 0.787790 0.826618
0.698901 0.779487 0.877900
0.884982 0.840537 0.148474
0.879365 0.849817 0.167766
0.871062 0.857143 0.188767
0.858852 0.862271 0.257875
0.841514 0.861783 0.449328
0.820024 0.858852 0.621490
0.798779 0.854457 0.750672
0.764591 0.843956 0.851038
0.718437 0.817094 0.889866
0.889133 0.909890 0.156044
0.883516 0.911600 0.170452
0.874481 0.913797 0.188767
0.856654 0.912088 0.337729
0.837607 0.911111 0.493773
0.819048 0.908181 0.622711
0.805372 0.909158 0.726252
0.707937 0.927717 0.875702
0.735531 0.866911 0.903297
0.787790 0.138462 0.098901
0.787302 0.150183 0.116239
0.783150 0.168010 0.144078
0.767277 0.185836 0.188278
0.771429 0.208303 0.229792
0.756044 0.220024 0.257875
0.739683 0.261294 0.300366
0.711355 0.340659 0.415385
0.646154 0.409768 0.634188
0.808547 0.183639 0.107204
0.809280 0.173382 0.121856
0.810012 0.199023 0.144811
0.828083 0.247131 0.196825
0.795360 0.287424 0.270574
0.777289 0.297436 0.303297
0.759707 0.340415 0.369719
0.734310 0.415629 0.512088
0.690598 0.460562 0.700611
0.863248 0.275214 0.100366
0.863004 0.274481 0.103053
0.860073 0.260073 0.121368
0.871551 0.322100 0.203419
0.828083 0.384615 0.337485
0.807326 0.399023 0.385104
0.783639 0.440537 0.477167
0.757265 0.488889 0.601221
0.730647 0.517460 0.759707
0.904762 0.355311 0.094261
0.902076 0.366789 0.097924
0.896703 0.395849 0.109890
0.897924 0.422955 0.207570
0.862759 0.495482 0.421978
0.833455 0.526496 0.522100
0.814652 0.547253 0.593895
0.794139 0.558730 0.673993
0.771184 0.587546 0.808547
0.931136 0.448840 0.092063
0.926984 0.465201 0.101587
0.919414 0.508669 0.130891
0.902564 0.580952 0.225397
0.881563 0.608059 0.487179
0.856166 0.637363 0.618071
0.838095 0.648840 0.685470
0.822222 0.643712 0.743346
0.801954 0.666667 0.842247
0.950916 0.555556 0.104518
0.945055 0.573382 0.119902
0.935775 0.613675 0.156532
0.916728 0.669597 0.224420
0.895482 0.711111 0.474725
0.874725 0.723321 0.652991
0.857387 0.729915 0.733822
0.842002 0.734066 0.793162
0.823687 0.741636 0.860806
0.948230 0.679365 0.132112
0.946520 0.690110 0.145788
0.943590 0.710134 0.173626
0.933578 0.742125 0.226129
0.917460 0.771184 0.408059
0.894750 0.791697 0.631013
0.872039 0.802198 0.755311
0.860073 0.798046 0.811477
0.837851 0.807326 0.870574
0.947497 0.798046 0.146764
0.946032 0.803663 0.158974
0.945543 0.813187 0.181441
0.942857 0.826618 0.219780
0.933578 0.841758 0.268864
0.914286 0.850549 0.519170
0.893284 0.857387 0.711355
0.866178 0.863492 0.822466
0.849328 0.861538 0.875946
0.939438 0.910623 0.173871
0.936508 0.915995 0.191209
0.931136 0.922344 0.208791
0.923810 0.924786 0.259829
0.909402 0.921856 0.446886
0.897680 0.921123 0.586813
0.881319 0.920147 0.714774
0.870085 0.917216 0.809035
0.849817 0.912576 0.886691
0.857387 0.157753 0.109890
0.855922 0.170452 0.126984
0.854945 0.190232 0.149451
0.873016 0.229548 0.191209
0.857631 0.277656 0.262027
0.847863 0.282295 0.284982
0.841270 0.300122 0.324298
0.827350 0.382173 0.467155
0.803175 0.429792 0.603663
0.872772 0.206349 0.117705
0.871551 0.194383 0.132112
0.887179 0.235653 0.138462
0.906471 0.294505 0.199512
0.879609 0.345055 0.303053
0.867155 0.360928 0.349695
0.857631 0.381929 0.401465
0.839560 0.451526 0.548230
0.826129 0.475214 0.653968
0.926984 0.311600 0.091819
0.924298 0.307937 0.094994
0.920635 0.292552 0.108425
0.935043 0.353602 0.188767
0.904029 0.428571 0.359707
0.886447 0.460562 0.449573
0.874725 0.482540 0.516484
0.857143 0.519170 0.622955
0.849817 0.531624 0.713309
0.958974 0.402686 0.090110
0.954335 0.415873 0.096459
0.946764 0.443956 0.115751
0.950672 0.457875 0.194139
0.928938 0.522344 0.418071
0.901587 0.570696 0.564835
0.889621 0.589988 0.635653
0.875214 0.592430 0.691331
0.869597 0.596825 0.767033
0.974847 0.499145 0.098168
0.973626 0.517460 0.109646
0.967766 0.551648 0.136020
0.953846 0.612454 0.222711
0.941636 0.625153 0.468132
0.922344 0.653968 0.616606
0.902076 0.677900 0.711844
0.890354 0.672283 0.750672
0.885226 0.667155 0.808547
0.970940 0.595849 0.114530
0.969719 0.610989 0.130403
0.969231 0.640293 0.160684
0.966545 0.686691 0.221001
0.954090 0.722833 0.447863
0.936996 0.730403 0.639560
0.920391 0.742125 0.734799
0.906227 0.749695 0.793162
0.896459 0.736752 0.832723
0.964591 0.703541 0.137729
0.964103 0.712088 0.151893
0.965324 0.727228 0.178510
0.966545 0.747009 0.231746
0.962882 0.770696 0.406838
0.954579 0.792674 0.610256
0.937485 0.800488 0.739683
0.921368 0.803175 0.804640
0.908425 0.807570 0.858608
0.964347 0.794139 0.149206
0.964347 0.798535 0.161905
0.965079 0.803175 0.178266
0.967277 0.810501 0.220757
0.967033 0.819780 0.296947
0.961172 0.832479 0.571184
0.954823 0.850794 0.717216
0.935043 0.861294 0.808791
0.923810 0.854945 0.858608
0.969963 0.875458 0.149695
0.968742 0.878388 0.160684
0.969719 0.881074 0.176313
0.971917 0.885226 0.208791
0.973626 0.890110 0.251282
0.968498 0.892552 0.436874
0.960928 0.897680 0.658364
0.951648 0.908181 0.777534
0.925763 0.917705 0.862515
