leica-film-sim/luts/lut-ccd.cube
# Synthetic CCD LUT - warm midtones, lifted shadows, rich skin tones
# Generated for YINGDIAO YISHUN Leica Film Simulator
TITLE "CCD Classic Color"
LUT_3D_SIZE 5
DOMAIN_MIN 0.0 0.0 0.0
DOMAIN_MAX 1.0 1.0 1.0
0.001259 0.000998 0.000678
0.160087 0.005303 0.004692
0.494008 0.005731 0.004817
0.837020 0.001392 0.000194
0.999342 0.001541 0.000105
0.005263 0.160129 0.003351
0.178075 0.166678 0.000198
0.514975 0.167989 0.000108
0.844913 0.169303 0.000045
0.999813 0.170621 0.000009
0.003560 0.481735 0.000111
0.186365 0.483387 0.000047
0.525423 0.500039 0.000010
0.851544 0.501257 0.000000
0.999755 0.499553 0.000018
0.005102 0.809139 0.000011
0.193872 0.810188 0.000000
0.524103 0.808857 0.000017
0.843776 0.827837 0.000060
0.999238 0.826511 0.000131
0.004954 0.992904 0.000016
0.185466 0.992590 0.000058
0.513654 0.992269 0.000128
0.835863 0.991942 0.000224
0.998438 0.997396 0.000347
0.003500 0.003123 0.141465
0.165103 0.005464 0.149774
0.503357 0.002901 0.152914
0.838564 0.001448 0.150384
0.999456 0.001599 0.148028
0.003787 0.162152 0.152393
0.179674 0.167177 0.150471
0.517005 0.168490 0.148115
0.846429 0.169805 0.145773
0.999871 0.171125 0.143444
0.003838 0.482365 0.148201
0.187990 0.484017 0.145858
0.527451 0.500688 0.143530
0.850047 0.500607 0.143640
0.999677 0.498903 0.145969
0.005432 0.809646 0.143615
0.192229 0.809681 0.143555
0.522074 0.808348 0.145884
0.842251 0.827332 0.148226
0.999104 0.826004 0.150583
0.004638 0.992785 0.145798
0.183848 0.992468 0.148140
0.511624 0.992145 0.150497
0.834309 0.991815 0.152867
0.998250 0.997320 0.155251
0.006853 0.006347 0.441008
0.170268 0.005709 0.462786
0.508582 0.001358 0.475359
0.840103 0.001505 0.472168
0.999559 0.001659 0.468977
0.002750 0.166367 0.475477
0.181279 0.167677 0.472285
0.519034 0.168991 0.469095
0.847940 0.170308 0.465905
0.999919 0.171629 0.462717
0.004127 0.482995 0.469212
0.189620 0.484647 0.466022
0.529479 0.501338 0.462834
0.861666 0.505957 0.453452
1.000000 0.504253 0.456636
0.005773 0.810153 0.462951
0.190591 0.809173 0.465299
0.520045 0.807840 0.468489
0.854099 0.831475 0.459705
0.999865 0.830159 0.462892
0.004332 0.992665 0.468371
0.182236 0.992346 0.471562
0.509593 0.992020 0.474753
0.846380 0.992862 0.465963
0.999442 0.997911 0.469152
0.008790 0.008140 0.759850
0.174009 0.004463 0.796841
0.510612 0.001413 0.809012
0.841636 0.001563 0.806431
0.999651 0.001720 0.803837
0.002996 0.166866 0.809107
0.182889 0.168178 0.806526
0.521063 0.169493 0.803933
0.849444 0.170811 0.801328
0.999887 0.171279 0.800404
0.004425 0.498579 0.804029
0.191255 0.500284 0.801424
0.528461 0.501012 0.800308
0.860208 0.505308 0.793059
0.999996 0.503603 0.795700
0.005666 0.809997 0.800212
0.188959 0.808665 0.802821
0.518016 0.807330 0.805419
0.852611 0.830974 0.798233
0.999805 0.829656 0.800851
0.004036 0.992544 0.805324
0.180628 0.992222 0.807910
0.507563 0.991894 0.810485
0.844864 0.992743 0.803363
0.999327 0.997843 0.805958
0.008254 0.007445 0.947084
0.176226 0.001626 0.993602
0.512642 0.001469 0.994598
0.843164 0.001622 0.994059
0.999733 0.001781 0.993495
0.003253 0.167366 0.994617
0.184503 0.168679 0.994079
0.523092 0.169995 0.993516
0.850944 0.171315 0.992928
0.999832 0.170775 0.993172
0.004734 0.499229 0.993537
0.192895 0.500933 0.992950
0.526434 0.500362 0.993150
0.858745 0.504658 0.991429
0.999982 0.502954 0.992075
0.005329 0.829786 0.993128
0.187330 0.828465 0.993707
0.515986 0.827141 0.994262
0.851118 0.830472 0.992674
0.999734 0.829153 0.993272
0.003751 0.992422 0.994242
0.179026 0.992098 0.994773
0.505533 0.991767 0.995279
0.843342 0.992623 0.993825
0.999201 0.997774 0.994374
