leica-film-sim/luts/lut-ektar.cube
#Created from IWLTBAP Aspen 3DL LUT (F-8700-LOG variant)
#Converted from .3dl to .cube format
TITLE "IWLTBAP Aspen"
LUT_3D_SIZE 5
0.035897 0.041270 0.046642
0.035165 0.066911 0.125031
0.042735 0.116484 0.260562
0.059096 0.197802 0.463492
0.079853 0.302808 0.675946
0.048596 0.131136 0.062027
0.048352 0.128694 0.153602
0.057631 0.177534 0.309646
0.075702 0.271062 0.535287
0.095726 0.373871 0.725031
0.058608 0.268132 0.074969
0.070330 0.372405 0.221245
0.079853 0.288156 0.387057
0.096459 0.359219 0.609280
0.114774 0.448840 0.772161
0.082295 0.452991 0.099145
0.085470 0.529182 0.205128
0.136264 0.643956 0.680098
0.125275 0.504762 0.693040
0.136508 0.539927 0.814896
0.113065 0.682540 0.123321
0.105495 0.743834 0.228083
0.173871 0.842979 0.827350
0.169231 0.706471 0.823443
0.163614 0.654701 0.860562
0.146276 0.064713 0.051282
0.110867 0.079609 0.128449
0.076435 0.132112 0.256166
0.093040 0.210012 0.444200
0.114530 0.313065 0.657631
0.196337 0.143834 0.057387
0.114530 0.160440 0.170940
0.092063 0.208791 0.355067
0.110379 0.302564 0.578510
0.129670 0.397558 0.749939
0.199023 0.342857 0.073016
0.109402 0.347009 0.150672
0.116972 0.339927 0.439805
0.133089 0.403419 0.654945
0.149206 0.478144 0.793407
0.300611 0.566300 0.093529
0.143346 0.547253 0.158730
0.169475 0.693773 0.702320
0.161661 0.552137 0.728205
0.170940 0.573626 0.834921
0.433700 0.790476 0.116972
0.293040 0.794872 0.167277
0.196093 0.860562 0.754090
0.204151 0.747741 0.849817
0.196825 0.682540 0.875946
0.382173 0.085714 0.057631
0.353358 0.098168 0.130647
0.227106 0.143590 0.242491
0.129915 0.229060 0.430037
0.152625 0.334554 0.652747
0.502564 0.171673 0.078144
0.500366 0.181929 0.122833
0.285714 0.255189 0.318926
0.153846 0.317949 0.541880
0.170452 0.420757 0.749939
0.673260 0.327961 0.087424
0.640049 0.392430 0.125763
0.359707 0.480342 0.504762
0.209035 0.473748 0.715507
0.191941 0.515751 0.825397
0.709158 0.707937 0.123321
0.646154 0.714774 0.145788
0.447375 0.709890 0.517705
0.258608 0.629792 0.772650
0.218803 0.619048 0.861783
0.746520 0.874237 0.124054
0.688889 0.873260 0.186813
0.608547 0.880342 0.475214
0.283516 0.824664 0.881563
0.260562 0.724786 0.895482
0.688400 0.122344 0.086203
0.674237 0.143346 0.136264
0.635165 0.162882 0.213675
0.535775 0.252015 0.315263
0.303541 0.405128 0.668864
0.775580 0.235409 0.104518
0.778266 0.231746 0.126740
0.718681 0.331136 0.310379
0.651526 0.405861 0.453968
0.431502 0.528694 0.763614
0.875214 0.397802 0.094505
0.859096 0.463492 0.127473
0.801709 0.581441 0.491575
0.737485 0.617094 0.674969
0.601954 0.673260 0.844444
0.894505 0.676435 0.127961
0.887668 0.719902 0.170696
0.854212 0.773138 0.352625
0.794383 0.794383 0.759463
0.698901 0.779487 0.877900
0.889133 0.909890 0.156044
0.874481 0.913797 0.188767
0.837607 0.911111 0.493773
0.805372 0.909158 0.726252
0.735531 0.866911 0.903297
0.857387 0.157753 0.109890
0.854945 0.190232 0.149451
0.857631 0.277656 0.262027
0.841270 0.300122 0.324298
0.803175 0.429792 0.603663
0.926984 0.311600 0.091819
0.920635 0.292552 0.108425
0.904029 0.428571 0.359707
0.874725 0.482540 0.516484
0.849817 0.531624 0.713309
0.974847 0.499145 0.098168
0.967766 0.551648 0.136020
0.941636 0.625153 0.468132
0.902076 0.677900 0.711844
0.885226 0.667155 0.808547
0.964591 0.703541 0.137729
0.965324 0.727228 0.178510
0.962882 0.770696 0.406838
0.937485 0.800488 0.739683
0.908425 0.807570 0.858608
0.969963 0.875458 0.149695
0.969719 0.881074 0.176313
0.973626 0.890110 0.251282
0.960928 0.897680 0.658364
0.925763 0.917705 0.862515
