leica-film-sim/luts/lut-ccd.cube
# Synthetic CCD LUT - warm midtones, lifted shadows, rich skin tones
# Generated for YINGDIAO YISHUN Leica Film Simulator
TITLE "CCD Classic Color"
LUT_3D_SIZE 33
DOMAIN_MIN 0.0 0.0 0.0
DOMAIN_MAX 1.0 1.0 1.0
0.001259 0.000998 0.000678
0.006950 0.001255 0.000899
0.017168 0.001666 0.001275
0.031682 0.002192 0.001765
0.050251 0.002795 0.002331
0.072630 0.003439 0.002939
0.098569 0.004091 0.003555
0.127809 0.004722 0.004148
0.160087 0.005303 0.004692
0.195132 0.005810 0.005162
0.232670 0.006220 0.005535
0.272418 0.006514 0.005791
0.314088 0.006674 0.005914
0.357386 0.006687 0.005888
0.402010 0.006539 0.005702
0.447655 0.006223 0.005348
0.494008 0.005731 0.004817
0.540751 0.005059 0.004106
0.587557 0.004206 0.003214
0.634096 0.003172 0.002142
0.680031 0.001963 0.000894
0.723248 0.001339 0.000234
0.763284 0.001356 0.000220
0.801318 0.001374 0.000207
0.837020 0.001392 0.000194
0.870064 0.001410 0.000181
0.900120 0.001429 0.000169
0.926861 0.001447 0.000157
0.949958 0.001466 0.000146
0.969083 0.001484 0.000135
0.983907 0.001503 0.000125
0.994103 0.001522 0.000115
0.999342 0.001541 0.000105
0.001852 0.007439 0.001128
0.007641 0.006753 0.001235
0.018067 0.007164 0.001550
0.032823 0.007671 0.001961
0.051665 0.008237 0.002431
0.074346 0.008829 0.002925
0.100610 0.009414 0.003413
0.130198 0.009964 0.003865
0.162841 0.010454 0.004256
0.198268 0.010858 0.004561
0.236199 0.011157 0.004760
0.276348 0.011331 0.004834
0.318426 0.011366 0.004768
0.362134 0.011247 0.004549
0.407169 0.010965 0.004165
0.453220 0.010511 0.003609
0.499973 0.009880 0.002876
0.547105 0.009070 0.001963
0.594288 0.008080 0.000869
0.639743 0.007525 0.000235
0.682765 0.007566 0.000221
0.724431 0.007608 0.000207
0.764414 0.007649 0.000194
0.802384 0.007691 0.000182
0.838015 0.007733 0.000170
0.870977 0.007774 0.000158
0.900942 0.007816 0.000147
0.927582 0.007858 0.000136
0.950569 0.007900 0.000125
0.969574 0.007943 0.000115
0.984269 0.007985 0.000105
0.994326 0.008028 0.000096
0.999416 0.008070 0.000087
0.002607 0.017778 0.001733
0.008618 0.018087 0.001848
0.019165 0.017392 0.002011
0.034145 0.017891 0.002322
0.053243 0.018432 0.002675
0.076207 0.018982 0.003036
0.102779 0.019512 0.003375
0.132696 0.019994 0.003666
0.165687 0.020402 0.003883
0.201476 0.020716 0.004004
0.239781 0.020915 0.004009
0.280314 0.020981 0.003882
0.322781 0.020902 0.003608
0.366880 0.020664 0.003174
0.412306 0.020258 0.002573
0.458744 0.019679 0.001796
0.505877 0.018922 0.000841
0.552247 0.018459 0.000235
0.596979 0.018523 0.000221
0.641003 0.018586 0.000208
0.683990 0.018649 0.000195
0.725613 0.018713 0.000182
0.765542 0.018776 0.000170
0.803449 0.018840 0.000158
0.839007 0.018904 0.000147
0.871887 0.018968 0.000136
0.901760 0.019032 0.000126
0.928299 0.019096 0.000115
0.951176 0.019160 0.000106
0.970061 0.019225 0.000097
0.984626 0.019289 0.000088
0.994544 0.019354 0.000079
0.999486 0.019418 0.000071
0.003444 0.032311 0.002414
0.009594 0.032659 0.002449
0.020383 0.033102 0.002579
0.035522 0.032618 0.002721
0.054859 0.033144 0.002937
0.078090 0.033664 0.003146
0.104954 0.034148 0.003318
0.135183 0.034572 0.003429
0.168504 0.034911 0.003454
0.204639 0.035144 0.003372
0.243301 0.035253 0.003165
0.284200 0.035223 0.002817
0.327038 0.035040 0.002316
0.371511 0.034694 0.001651
0.417309 0.034176 0.000813
0.463274 0.033827 0.000236
0.508442 0.033911 0.000222
0.553548 0.033995 0.000208
0.598264 0.034078 0.000195
0.642262 0.034162 0.000183
0.685215 0.034246 0.000171
0.726793 0.034331 0.000159
0.766668 0.034415 0.000147
0.804512 0.034499 0.000136
0.839997 0.034584 0.000126
0.872795 0.034668 0.000116
0.902576 0.034753 0.000106
0.929014 0.034838 0.000097
0.951779 0.034922 0.000088
0.970544 0.035007 0.000080
0.984980 0.035092 0.000072
0.994759 0.035177 0.000064
0.999552 0.035263 0.000057
0.004252 0.050824 0.003059
0.010527 0.051219 0.002998
0.021478 0.051689 0.003011
0.036859 0.052201 0.003064
0.056398 0.052132 0.003103
0.079881 0.052631 0.003142
0.107020 0.053080 0.003130
0.137546 0.053455 0.003043
0.171183 0.053733 0.002858
0.207647 0.053896 0.002556
0.246651 0.053926 0.002119
0.287900 0.053809 0.001535
0.331092 0.053532 0.000790
0.375339 0.053315 0.000236
0.419666 0.053417 0.000222
0.464578 0.053520 0.000209
0.509748 0.053623 0.000196
0.554848 0.053726 0.000183
0.599548 0.053829 0.000171
0.643521 0.053932 0.000159
0.686438 0.054035 0.000148
0.727971 0.054138 0.000137
0.767792 0.054242 0.000126
0.805573 0.054345 0.000116
0.840985 0.054449 0.000106
0.873700 0.054552 0.000097
0.903389 0.054656 0.000088
0.929725 0.054760 0.000080
0.952380 0.054863 0.000072
0.971024 0.054967 0.000064
0.985330 0.055071 0.000057
0.994969 0.055176 0.000050
0.999613 0.055280 0.000044
0.004928 0.073094 0.003565
0.011316 0.073543 0.003391
0.022416 0.074049 0.003272
0.037980 0.074578 0.003174
0.057753 0.075097 0.003065
0.081475 0.075633 0.002919
0.108877 0.076056 0.002707
0.139686 0.076391 0.002405
0.173622 0.076618 0.001995
0.210402 0.076719 0.001457
0.249732 0.076678 0.000775
0.290955 0.076608 0.000237
0.333166 0.076728 0.000223
0.376610 0.076849 0.000209
0.420958 0.076969 0.000196
0.465883 0.077089 0.000184
0.511055 0.077210 0.000171
0.556148 0.077330 0.000160
0.600831 0.077451 0.000148
0.644778 0.077571 0.000137
0.687660 0.077692 0.000127
0.729148 0.077813 0.000117
0.768915 0.077934 0.000107
0.806632 0.078055 0.000098
0.841970 0.078176 0.000089
0.874602 0.078297 0.000080
0.904200 0.078418 0.000072
0.930434 0.078540 0.000065
0.952977 0.078661 0.000057
0.971500 0.078782 0.000051
0.985676 0.078904 0.000044
0.995175 0.079026 0.000038
0.999670 0.079147 0.000033
0.005376 0.098892 0.003838
0.011867 0.099404 0.003537
0.023106 0.099952 0.003271
0.038841 0.100504 0.003007
0.058816 0.101031 0.002716
0.082766 0.101505 0.002371
0.110430 0.102818 0.001956
0.141509 0.103121 0.001426
0.175733 0.103305 0.000775
0.212635 0.103394 0.000237
0.251455 0.103530 0.000223
0.292155 0.103666 0.000210
0.334406 0.103803 0.000197
0.377881 0.103939 0.000184
0.422251 0.104075 0.000172
0.467187 0.104212 0.000160
0.512362 0.104348 0.000149
0.557447 0.104485 0.000138
0.602114 0.104621 0.000127
0.646035 0.104758 0.000117
0.688881 0.104895 0.000107
0.730324 0.105032 0.000098
0.770036 0.105169 0.000089
0.807689 0.105306 0.000081
0.842953 0.105443 0.000073
0.875502 0.105580 0.000065
0.905007 0.105717 0.000058
0.931139 0.105854 0.000051
0.953570 0.105992 0.000045
0.971973 0.106129 0.000039
0.986017 0.106267 0.000033
0.995377 0.106404 0.000028
0.999722 0.106542 0.000023
0.005514 0.127985 0.003792
0.012096 0.128564 0.003350
0.023463 0.129160 0.002924
0.039361 0.129743 0.002482
0.059527 0.130283 0.001996
0.083695 0.130755 0.001439
0.111591 0.131135 0.000789
0.142895 0.133359 0.000238
0.177048 0.133509 0.000224
0.213728 0.133660 0.000210
0.252607 0.133810 0.000197
0.293357 0.133961 0.000185
0.335648 0.134112 0.000172
0.379153 0.134263 0.000160
0.423544 0.134414 0.000149
0.468492 0.134564 0.000138
0.513669 0.134716 0.000127
0.558746 0.134867 0.000117
0.603396 0.135018 0.000108
0.647290 0.135169 0.000098
0.690101 0.135320 0.000089
0.731498 0.135472 0.000081
0.771155 0.135623 0.000073
0.808743 0.135775 0.000065
0.843934 0.135926 0.000058
0.876400 0.136078 0.000051
0.905812 0.136229 0.000045
0.931841 0.136381 0.000039
0.954161 0.136533 0.000033
0.972442 0.136685 0.000028
0.986355 0.136837 0.000024
0.995574 0.136989 0.000019
0.999770 0.137141 0.000015
0.005263 0.160129 0.003351
0.011929 0.160782 0.002756
0.023415 0.161432 0.002158
0.039465 0.162051 0.001525
0.059814 0.162610 0.000832
0.084247 0.163020 0.000238
0.112459 0.163178 0.000224
0.143844 0.163335 0.000211
0.178075 0.166678 0.000198
0.214823 0.166842 0.000185
0.253761 0.167005 0.000173
0.294559 0.167169 0.000161
0.336890 0.167333 0.000149
0.380426 0.167497 0.000138
0.424837 0.167661 0.000128
0.469796 0.167825 0.000118
0.514975 0.167989 0.000108
0.560045 0.168153 0.000099
0.604678 0.168317 0.000090
0.648545 0.168481 0.000081
0.691319 0.168646 0.000073
0.732671 0.168810 0.000065
0.772273 0.168974 0.000058
0.809796 0.169139 0.000051
0.844913 0.169303 0.000045
0.877295 0.169468 0.000039
0.906613 0.169632 0.000034
0.932540 0.169797 0.000028
0.954748 0.169962 0.000024
0.972907 0.170127 0.000019
0.986690 0.170291 0.000016
0.995768 0.170456 0.000012
0.999813 0.170621 0.000009
0.004557 0.195079 0.002447
0.011299 0.195809 0.001689
0.022898 0.196518 0.000908
0.039206 0.197087 0.000239
0.060200 0.197255 0.000225
0.085015 0.197423 0.000211
0.113323 0.197592 0.000198
0.144795 0.197760 0.000185
0.179104 0.197929 0.000173
0.215920 0.202617 0.000161
0.254916 0.202793 0.000150
0.295764 0.202968 0.000139
0.338134 0.203143 0.000128
0.381699 0.203319 0.000118
0.426131 0.203494 0.000108
0.471101 0.203670 0.000099
0.516281 0.203845 0.000090
0.561343 0.204021 0.000081
0.605959 0.204196 0.000073
0.649799 0.204372 0.000066
0.692536 0.204548 0.000058
0.733842 0.204723 0.000052
0.773389 0.204899 0.000045
0.810847 0.205075 0.000039
0.845889 0.205251 0.000034
0.878187 0.205427 0.000029
0.907412 0.205603 0.000024
0.933236 0.205779 0.000020
0.955331 0.205955 0.000016
0.973368 0.206131 0.000012
0.987020 0.206308 0.000009
0.995957 0.206484 0.000007
0.999852 0.206660 0.000005
0.003339 0.232581 0.001024
0.010286 0.233294 0.000239
0.022787 0.233472 0.000225
0.039757 0.233650 0.000212
0.060866 0.233828 0.000199
0.085787 0.234006 0.000186
0.114190 0.234184 0.000174
0.145749 0.234362 0.000162
0.180135 0.234541 0.000150
0.217019 0.234719 0.000139
0.256073 0.240849 0.000129
0.296969 0.241034 0.000118
0.339379 0.241220 0.000109
0.382974 0.241405 0.000099
0.427426 0.241590 0.000090
0.472406 0.241776 0.000082
0.517588 0.241961 0.000074
0.562641 0.242147 0.000066
0.607239 0.242332 0.000059
0.651052 0.242518 0.000052
0.693753 0.242704 0.000045
0.735012 0.242889 0.000039
0.774503 0.243075 0.000034
0.811896 0.243261 0.000029
0.846864 0.243447 0.000024
0.879077 0.243633 0.000020
0.908208 0.243819 0.000016
0.933929 0.244005 0.000012
0.955911 0.244190 0.000009
0.973826 0.244377 0.000007
0.987346 0.244563 0.000005
0.996142 0.244749 0.000003
0.999886 0.244935 0.000001
0.002734 0.271542 0.000226
0.010582 0.271729 0.000212
0.023217 0.271915 0.000199
0.040311 0.272101 0.000186
0.061535 0.272287 0.000174
0.086561 0.272474 0.000162
0.115060 0.272660 0.000151
0.146706 0.272846 0.000140
0.181168 0.273033 0.000129
0.218119 0.273219 0.000119
0.257231 0.273406 0.000109
0.298176 0.281046 0.000100
0.340624 0.281240 0.000091
0.384249 0.281433 0.000082
0.428721 0.281627 0.000074
0.473712 0.281821 0.000066
0.518894 0.282015 0.000059
0.563939 0.282209 0.000052
0.608518 0.282403 0.000046
0.652304 0.282597 0.000040
0.694968 0.282791 0.000034
0.736181 0.282985 0.000029
0.775615 0.283179 0.000024
0.812943 0.283373 0.000020
0.847835 0.283567 0.000016
0.879964 0.283762 0.000013
0.909002 0.283956 0.000009
0.934619 0.284150 0.000007
0.956488 0.284345 0.000005
0.974281 0.284539 0.000003
0.987668 0.284733 0.000002
0.996323 0.284928 0.000001
0.999916 0.285122 0.000000
0.002890 0.311566 0.000200
0.010882 0.311759 0.000187
0.023650 0.311952 0.000174
0.040868 0.312145 0.000163
0.062206 0.312338 0.000151
0.087338 0.312531 0.000140
0.115933 0.312724 0.000129
0.147664 0.312917 0.000119
0.182203 0.313111 0.000109
0.219222 0.313304 0.000100
0.258391 0.313497 0.000091
0.299384 0.313690 0.000082
0.341871 0.322880 0.000074
0.385524 0.323080 0.000067
0.430016 0.323281 0.000059
0.475017 0.323482 0.000052
0.520200 0.323683 0.000046
0.565236 0.323884 0.000040
0.609797 0.324084 0.000034
0.653555 0.324285 0.000029
0.696181 0.324486 0.000024
0.737348 0.324687 0.000020
0.776726 0.324888 0.000016
0.813988 0.325089 0.000013
0.848805 0.325290 0.000010
0.880849 0.325491 0.000007
0.909792 0.325692 0.000005
0.935306 0.325893 0.000003
0.957061 0.326094 0.000002
0.974731 0.326296 0.000001
0.987987 0.326497 0.000000
0.996448 0.326582 0.000000
0.999907 0.326381 0.000000
0.003051 0.352891 0.000175
0.011185 0.353090 0.000163
0.024087 0.353288 0.000152
0.041429 0.353487 0.000140
0.062882 0.353685 0.000130
0.088117 0.353884 0.000119
0.116808 0.354082 0.000110
0.148625 0.354281 0.000100
0.183240 0.354480 0.000091
0.220326 0.354678 0.000083
0.259553 0.354877 0.000075
0.300593 0.355076 0.000067
0.343118 0.355275 0.000060
0.386801 0.366024 0.000053
0.431312 0.366230 0.000046
0.476323 0.366436 0.000040
0.521506 0.366642 0.000035
0.566533 0.366848 0.000029
0.611076 0.367054 0.000025
0.654805 0.367260 0.000020
0.697394 0.367467 0.000016
0.738513 0.367673 0.000013
0.777835 0.367879 0.000010
0.815030 0.368086 0.000007
0.849772 0.368292 0.000005
0.881731 0.368498 0.000003
0.910580 0.368705 0.000002
0.935989 0.368911 0.000001
0.957631 0.369117 0.000000
0.975064 0.369220 0.000000
0.987900 0.369014 0.000000
0.996270 0.368808 0.000001
0.999876 0.368601 0.000002
0.003216 0.395224 0.000152
0.011493 0.395427 0.000141
0.024528 0.395629 0.000130
0.041993 0.395832 0.000120
0.063560 0.396035 0.000110
0.088900 0.396237 0.000101
0.117686 0.396440 0.000092
0.149588 0.396643 0.000083
0.184280 0.396845 0.000075
0.221432 0.397048 0.000067
0.260716 0.397251 0.000060
0.301803 0.397453 0.000053
0.344367 0.397656 0.000046
0.388078 0.397859 0.000040
0.432608 0.410150 0.000035
0.477629 0.410360 0.000029
0.522812 0.410570 0.000025
0.567829 0.410780 0.000020
0.612353 0.410990 0.000016
0.656054 0.411200 0.000013
0.698605 0.411410 0.000010
0.739677 0.411620 0.000007
0.778942 0.411830 0.000005
0.816071 0.412040 0.000003
0.850737 0.412250 0.000002
0.882611 0.412460 0.000001
0.911364 0.412670 0.000000
0.936522 0.412790 0.000000
0.957497 0.412580 0.000000
0.974617 0.412370 0.000001
0.987580 0.412160 0.000002
0.996088 0.411950 0.000004
0.999840 0.411740 0.000006
0.003386 0.438270 0.000131
0.011805 0.438476 0.000120
0.024972 0.438681 0.000110
0.042561 0.438886 0.000101
0.064241 0.439091 0.000092
0.089686 0.439297 0.000083
0.118566 0.439502 0.000075
0.150554 0.439707 0.000067
0.185321 0.439913 0.000060
0.222539 0.440118 0.000053
0.261880 0.440323 0.000047
0.303015 0.440529 0.000041
0.345616 0.440734 0.000035
0.389356 0.440939 0.000030
0.433904 0.441145 0.000025
0.478935 0.454930 0.000020
0.524118 0.455143 0.000017
0.569126 0.455355 0.000013
0.613630 0.455567 0.000010
0.657303 0.455780 0.000007
0.699815 0.455992 0.000005
0.740839 0.456204 0.000003
0.780047 0.456417 0.000002
0.817110 0.456629 0.000001
0.851699 0.456841 0.000000
0.883330 0.456978 0.000000
0.911209 0.456766 0.000000
0.935841 0.456554 0.000001
0.956926 0.456341 0.000002
0.974165 0.456129 0.000004
0.987257 0.455917 0.000006
0.995902 0.455705 0.000008
0.999800 0.455492 0.000011
0.003560 0.481735 0.000111
0.012120 0.481941 0.000101
0.025420 0.482148 0.000092
0.043132 0.482354 0.000084
0.064926 0.482561 0.000075
0.090474 0.482767 0.000068
0.119449 0.482974 0.000060
0.151522 0.483180 0.000053
0.186365 0.483387 0.000047
0.223649 0.483593 0.000041
0.263046 0.483800 0.000035
0.304228 0.484007 0.000030
0.346867 0.484213 0.000025
0.390634 0.484420 0.000021
0.435201 0.484626 0.000017
0.480241 0.484833 0.000013
0.525423 0.500039 0.000010
0.570421 0.500252 0.000007
0.614906 0.500465 0.000005
0.658550 0.500678 0.000003
0.701024 0.500891 0.000002
0.742000 0.501104 0.000001
0.781150 0.501317 0.000000
0.817999 0.501470 0.000000
0.851544 0.501257 0.000000
0.882453 0.501044 0.000001
0.910423 0.500831 0.000002
0.935157 0.500618 0.000004
0.956352 0.500405 0.000006
0.973710 0.500192 0.000008
0.986930 0.499979 0.000011
0.995712 0.499766 0.000014
0.999755 0.499553 0.000018
0.003738 0.525322 0.000093
0.012440 0.525529 0.000084
0.025872 0.525735 0.000076
0.043706 0.525942 0.000068
0.065613 0.526148 0.000061
0.091266 0.526354 0.000054
0.120335 0.526561 0.000047
0.152492 0.526767 0.000041
0.187410 0.526974 0.000035
0.224760 0.527180 0.000030
0.264213 0.527386 0.000025
0.305442 0.527593 0.000021
0.348118 0.527799 0.000017
0.391913 0.528005 0.000013
0.436499 0.528212 0.000010
0.481547 0.528418 0.000007
0.526729 0.528624 0.000005
0.571716 0.545146 0.000003
0.616182 0.545359 0.000002
0.659796 0.545571 0.000001
0.702231 0.545783 0.000000
0.743038 0.545952 0.000000
0.781014 0.545739 0.000000
0.816962 0.545527 0.000001
0.850581 0.545315 0.000002
0.881573 0.545103 0.000004
0.909635 0.544890 0.000006
0.934469 0.544678 0.000008
0.955775 0.544466 0.000011
0.973251 0.544253 0.000014
0.986599 0.544041 0.000018
0.995517 0.543829 0.000022
0.999706 0.543617 0.000026
0.003920 0.568739 0.000076
0.012764 0.568944 0.000068
0.026328 0.569149 0.000061
0.044284 0.569354 0.000054
0.066304 0.569558 0.000047
0.092060 0.569763 0.000041
0.121223 0.569968 0.000036
0.153465 0.570173 0.000030
0.188458 0.570378 0.000025
0.225873 0.570583 0.000021
0.265382 0.570787 0.000017
0.306658 0.570992 0.000013
0.349371 0.571197 0.000010
0.393193 0.571402 0.000007
0.437797 0.571607 0.000005
0.482853 0.571811 0.000003
0.528034 0.572016 0.000002
0.573011 0.572221 0.000001
0.617456 0.589926 0.000000
0.660957 0.590108 0.000000
0.702127 0.589898 0.000000
0.741878 0.589689 0.000001
0.779910 0.589479 0.000002
0.815923 0.589269 0.000004
0.849616 0.589059 0.000005
0.880690 0.588849 0.000008
0.908844 0.588639 0.000011
0.933779 0.588429 0.000014
0.955194 0.588218 0.000017
0.972788 0.588008 0.000022
0.986263 0.587798 0.000026
0.995318 0.587588 0.000031
0.999653 0.587378 0.000036
0.004106 0.611690 0.000061
0.013091 0.611892 0.000054
0.026787 0.612093 0.000048
0.044865 0.612295 0.000041
0.066998 0.612497 0.000036
0.092857 0.612699 0.000030
0.122114 0.612901 0.000026
0.154440 0.613103 0.000021
0.189507 0.613305 0.000017
0.226987 0.613507 0.000013
0.266553 0.613709 0.000010
0.307874 0.613910 0.000008
0.350624 0.614112 0.000005
0.394473 0.614314 0.000003
0.439095 0.614516 0.000002
0.484159 0.614718 0.000001
0.529339 0.614919 0.000000
0.574266 0.615109 0.000000
0.617394 0.614907 0.000000
0.659712 0.633214 0.000001
0.700920 0.633008 0.000002
0.740717 0.632802 0.000003
0.778805 0.632596 0.000005
0.814882 0.632389 0.000008
0.848649 0.632183 0.000010
0.879805 0.631977 0.000014
0.908050 0.631771 0.000017
0.933085 0.631564 0.000021
0.954609 0.631358 0.000026
0.972322 0.631152 0.000031
0.985924 0.630945 0.000036
0.995115 0.630739 0.000042
0.999595 0.630532 0.000048
0.004297 0.653879 0.000048
0.013423 0.654077 0.000042
0.027250 0.654275 0.000036
0.045450 0.654472 0.000031
0.067695 0.654670 0.000026
0.093657 0.654868 0.000021
0.123007 0.655065 0.000017
0.155417 0.655263 0.000014
0.190559 0.655460 0.000010
0.228104 0.655658 0.000008
0.267724 0.655855 0.000005
0.309092 0.656053 0.000003
0.351878 0.656250 0.000002
0.395755 0.656447 0.000001
0.440393 0.656645 0.000000
0.485466 0.656842 0.000000
0.529324 0.656648 0.000000
0.572972 0.656450 0.000001
0.616119 0.656253 0.000002
0.658466 0.656055 0.000003
0.699711 0.675188 0.000005
0.739555 0.674987 0.000008
0.777697 0.674786 0.000010
0.813839 0.674585 0.000014
0.847679 0.674383 0.000017
0.878917 0.674182 0.000021
0.907254 0.673981 0.000026
0.932389 0.673780 0.000031
0.954022 0.673579 0.000036
0.971852 0.673378 0.000042
0.985581 0.673177 0.000048
0.994908 0.672975 0.000054
0.999532 0.672774 0.000061
0.004492 0.695014 0.000036
0.013758 0.695206 0.000031
0.027716 0.695398 0.000026
0.046038 0.695590 0.000021
0.068395 0.695782 0.000017
0.094460 0.695974 0.000014
0.123903 0.696165 0.000011
0.156396 0.696357 0.000008
0.191612 0.696549 0.000005
0.229222 0.696741 0.000003
0.268898 0.696932 0.000002
0.310311 0.697124 0.000001
0.353133 0.697316 0.000000
0.397036 0.697507 0.000000
0.440427 0.697333 0.000000
0.484169 0.697141 0.000001
0.528019 0.696949 0.000002
0.571677 0.696758 0.000003
0.614844 0.696566 0.000005
0.657218 0.696374 0.000008
0.698501 0.696182 0.000010
0.738391 0.715937 0.000013
0.776588 0.715743 0.000017
0.812794 0.715549 0.000021
0.846707 0.715354 0.000025
0.878027 0.715160 0.000030
0.906454 0.714965 0.000036
0.931689 0.714771 0.000041
0.953430 0.714576 0.000047
0.971379 0.714382 0.000054
0.985234 0.714187 0.000061
0.994696 0.713993 0.000068
0.999465 0.713798 0.000076
0.004691 0.734799 0.000026
0.014097 0.734983 0.000022
0.028186 0.735168 0.000018
0.046630 0.735353 0.000014
0.069099 0.735538 0.000011
0.095265 0.735723 0.000008
0.124801 0.735907 0.000005
0.157378 0.736092 0.000004
0.192668 0.736277 0.000002
0.230342 0.736461 0.000001
0.270072 0.736646 0.000000
0.311531 0.736830 0.000000
0.353213 0.736675 0.000000
0.395812 0.736491 0.000001
0.439129 0.736306 0.000002
0.482863 0.736122 0.000003
0.526714 0.735937 0.000005
0.570382 0.735752 0.000007
0.613568 0.735568 0.000010
0.655970 0.735383 0.000013
0.697289 0.735198 0.000017
0.737225 0.735013 0.000021
0.775478 0.755163 0.000025
0.811747 0.754976 0.000030
0.845732 0.754790 0.000035
0.877134 0.754604 0.000041
0.905652 0.754418 0.000047
0.930986 0.754231 0.000054
0.952836 0.754045 0.000061
0.970902 0.753858 0.000068
0.984884 0.753672 0.000076
0.994481 0.753485 0.000084
0.999394 0.753299 0.000093
0.004894 0.772938 0.000018
0.014441 0.773115 0.000014
0.028660 0.773291 0.000011
0.047224 0.773467 0.000008
0.069805 0.773644 0.000006
0.096073 0.773820 0.000004
0.125702 0.773996 0.000002
0.158362 0.774172 0.000001
0.193725 0.774348 0.000000
0.231464 0.774524 0.000000
0.270191 0.774390 0.000000
0.310411 0.774213 0.000001
0.351958 0.774037 0.000002
0.394531 0.773861 0.000003
0.437830 0.773685 0.000005
0.481556 0.773509 0.000007
0.525408 0.773332 0.000010
0.569087 0.773156 0.000013
0.612291 0.772980 0.000017
0.654721 0.772803 0.000021
0.696077 0.772627 0.000025
0.736058 0.772450 0.000030
0.774365 0.772274 0.000035
0.810698 0.792563 0.000041
0.844755 0.792386 0.000047
0.876239 0.792209 0.000054
0.904847 0.792033 0.000060
0.930280 0.791856 0.000068
0.952238 0.791679 0.000076
0.970421 0.791502 0.000084
0.984529 0.791325 0.000092
0.994261 0.791148 0.000101
0.999318 0.790971 0.000111
0.005102 0.809139 0.000011
0.014788 0.809305 0.000008
0.029138 0.809471 0.000006
0.047822 0.809638 0.000004
0.070514 0.809804 0.000002
0.096885 0.809970 0.000001
0.126605 0.810137 0.000000
0.159348 0.810303 0.000000
0.193872 0.810188 0.000000
0.230476 0.810022 0.000001
0.269016 0.809856 0.000002
0.309192 0.809689 0.000003
0.350704 0.809523 0.000005
0.393250 0.809356 0.000007
0.436533 0.809190 0.000010
0.480250 0.809023 0.000013
0.524103 0.808857 0.000017
0.567790 0.808690 0.000021
0.611013 0.808524 0.000025
0.653471 0.808357 0.000030
0.694863 0.808190 0.000035
0.734889 0.808023 0.000041
0.773251 0.807856 0.000047
0.809646 0.807689 0.000053
0.843776 0.827837 0.000060
0.875341 0.827671 0.000068
0.904039 0.827506 0.000075
0.929571 0.827340 0.000083
0.951637 0.827174 0.000092
0.969937 0.827008 0.000101
0.984170 0.826843 0.000111
0.994037 0.826677 0.000120
0.999238 0.826511 0.000131
0.005313 0.843105 0.000006
0.015139 0.843260 0.000004
0.029619 0.843415 0.000002
0.048424 0.843570 0.000001
0.071227 0.843725 0.000000
0.097699 0.843880 0.000000
0.126765 0.843784 0.000000
0.158517 0.843629 0.000001
0.192814 0.843474 0.000002
0.229356 0.843319 0.000003
0.267843 0.843164 0.000005
0.307974 0.843009 0.000007
0.349450 0.842853 0.000010
0.391971 0.842698 0.000013
0.435235 0.842543 0.000016
0.478944 0.842387 0.000020
0.522797 0.842232 0.000025
0.566494 0.842076 0.000030
0.609735 0.841920 0.000035
0.652219 0.841765 0.000040
0.693648 0.841609 0.000047
0.733719 0.841453 0.000053
0.772135 0.841297 0.000060
0.808593 0.841142 0.000067
0.842795 0.840986 0.000075
0.874440 0.860684 0.000083
0.903228 0.860531 0.000092
0.928859 0.860378 0.000101
0.951032 0.860225 0.000110
0.969449 0.860071 0.000120
0.983808 0.859918 0.000130
0.993809 0.859765 0.000141
0.999153 0.859611 0.000152
0.005529 0.874542 0.000002
0.015494 0.874684 0.000001
0.030103 0.874827 0.000000
0.049029 0.874969 0.000000
0.071379 0.874892 0.000000
0.097043 0.874749 0.000001
0.125861 0.874607 0.000002
0.157533 0.874464 0.000003
0.191758 0.874322 0.000005
0.228238 0.874179 0.000007
0.266671 0.874036 0.000010
0.306758 0.873893 0.000013
0.348198 0.873750 0.000016
0.390691 0.873608 0.000020
0.433938 0.873465 0.000025
0.477638 0.873322 0.000029
0.521491 0.873178 0.000035
0.565197 0.873035 0.000040
0.608456 0.872892 0.000046
0.650967 0.872749 0.000053
0.692431 0.872605 0.000060
0.732548 0.872462 0.000067
0.771017 0.872318 0.000075
